!!!!SEGMENT: pl-wtm--r-1664--007_stefani-jozef--okropnosc-czyli-nowa-lafarge-no-6.krn
!!!cenid: 18xx:2062
!!!COM: Stefani, Józef
!!!COM-rismid: pe30024097
!!!CDT: 1800/04/16-1876/03/19
!!!CNT: Polish
!!!OTL: Okropność czyli Nowa Lafarge – No. 6
!!!PDT:
!!!AGN: Secular
!!!SMS-siglum: PL-Wtm
!!!SMS-shelfmark: R 1664
!!!SMS-shelfwork: 001-007 M
!!!SMS-variant:
!!!SMS-altvar:
!!!NIFC-rismid: 1001114328
!!!URL-scan: http://repozytorium.nifc.pl/skany/pl-wtm-nut--r1664
!!!ONB-nifc: UWAGA: skany 0028-0033
**kern	**dynam	**kern	**dynam	**kern	**text	**kern	**dynam	**kern	**dynam	**kern	**dynam	**kern	**kern	**kern	**dynam	**kern	**dynam	**kern	**dynam	**kern	**dynam	**kern	**dynam	**kern	**kern	**dynam
*	*	*	*	*	*	*	*	*group1	*	*group1	*	*	*	*	*	*	*	*	*	*	*	*	*	*	*	*
*	*	*	*	*	*	*	*	*I""Violini	*	*I""Violini	*	*	*	*	*	*	*	*	*	*	*	*	*	*	*	*
*	*	*	*	*	*	*	*	*I''vli	*	*I''vli	*	*	*	*	*	*	*	*	*	*	*	*	*	*	*	*
*part15	*part15	*part14	*part14	*part13	*part13	*part12	*part12	*part11	*part11	*part10	*part10	*part9	*part8	*part7	*part7	*part6	*part6	*part5	*part5	*part4	*part4	*part3	*part3	*part2	*part1	*part1
*staff15	*	*staff14	*	*staff13	*staff13	*staff12	*	*staff11	*	*staff10	*	*staff9	*staff8	*staff7	*	*staff6	*	*staff5	*	*staff4	*	*staff3	*	*staff2	*staff1	*
*I"C: Baſsi	*	*I"Violoncelli	*	*I"Szymon	*	*I"Viole	*	*	*	*	*	*I"Violino Solo	*I"c. F. Timpani	*I"Trombone	*	*I"in C Trombe	*	*I"Fagoto	*	*I"in F. Corni	*	*I"in C. Clarinetti	*	*I"Oboe	*I"Flauto	*
*I'cb	*	*I'vlc	*	*I'T	*	*I'vla	*	*	*	*	*	*I'vl solo	*I'timp	*I'trb	*	*I'tr in C	*	*I'fag	*	*I'cor in F	*	*I'cl in C	*	*I'ob	*I'fl	*
*clefF4	*	*clefF4	*	*clefG2	*	*clefC3	*	*clefG2	*	*clefG2	*	*clefG2	*clefF4	*clefF4	*	*clefG2	*	*clefF4	*	*clefG2	*	*clefG2	*	*clefG2	*clefG2	*
*	*	*	*	*	*	*	*	*	*	*	*	*	*	*	*	*	*	*	*	*ITrd5c9	*	*ITrd1c2	*	*	*	*
*k[b-e-a-]	*	*k[b-e-a-]	*	*k[b-e-a-]	*	*k[b-e-a-]	*	*k[b-e-a-]	*	*k[b-e-a-]	*	*k[b-e-a-]	*k[]	*k[b-e-a-]	*	*k[b-e-a-]	*	*k[b-e-a-]	*	*k[b-e-a-]	*	*k[b-e-a-]	*	*k[b-e-a-]	*k[b-e-a-]	*
*E-:	*	*E-:	*	*E-:	*	*E-:	*	*E-:	*	*E-:	*	*E-:	*E-:	*E-:	*	*E-:	*	*E-:	*	*E-:	*	*E-:	*	*E-:	*E-:	*
*M3/4	*	*M3/4	*	*M3/4	*	*M3/4	*	*M3/4	*	*M3/4	*	*M3/4	*M3/4	*M3/4	*	*M3/4	*	*M3/4	*	*M3/4	*	*M3/4	*	*M3/4	*M3/4	*
=1	=1	=1	=1	=1	=1	=1	=1	=1	=1	=1	=1	=1	=1	=1	=1	=1	=1	=1	=1	=1	=1	=1	=1	=1	=1	=1
*	*	*	*	*	*	*	*	*	*	*	*	*	*	*	*	*	*	*	*	*	*	*^	*	*	*	*
!	!	!	!	!	!	!	!	!	!	!	!	!	!LO:TX:t=P:problem:brak znaków przykluczowych	!	!	!	!	!	!	!	!	!	!	!	!	!	!
!	!	!	!	!	!	!	!	!	!	!	!	!LO:TX:a:t=P:problem:partia występująca w Introdukcji	!LO:SIC:v:s=4BB-	!	!	!	!	!	!	!LO:TX:t=P:problem:Corni in  Es	!	!LO:TX:t=P:problem:klarnet in B	!	!	!	!	!
4BB-/	sf	4BB-/yy	sfyy	2.r	.	8r	.	8r	.	8r	sfp	2.ryy	4BB/	4BB-/	.	8B-'/L	.	8r	.	8r	.	8b-|\L	2.r	.	8b-'\L	8bb-'\L	.
.	.	.	.	.	.	8d\	.	8f/	sfp	8a- 8B-/	.	.	.	.	.	(16d/L	.	8B-\	.	8a- 8f\	sfp	16dd\L	.	.	(16dd\L	(16ddd\L	.
.	.	.	.	.	.	.	.	.	.	.	.	.	.	.	.	16f/JJ	.	.	.	.	.	16ff\JJ	.	.	16ff\JJ	16fff\JJ	.
*	*	*	*	*	*	*tremolo	*	*tremolo	*	*tremolo	*	*	*	*	*	*	*	*2\right	*	*2\right	*	*	*	*	*	*	*
*	*	*	*	*	*	*2\right	*	*	*	*	*	*	*	*	*	*	*	*	*	*	*	*	*	*	*	*	*
4r	.	4ryy	.	.	.	8d\L	.	8f/L	.	8a-L 8B-/	.	.	4r	4r	.	4a-/)	.	2B-\	.	2a- 2f\	.	4aa-\	.	.	4aa-\)	4aaa-\)	.
.	.	.	.	.	.	8d\	.	8f/	.	8a- 8B-/	.	.	.	.	.	.	.	.	.	.	.	.	.	.	.	.	.
4r	.	4ryy	.	.	.	8d\	.	8f/	.	8a- 8B-/	.	.	4r	4r	.	4d/	.	.	.	.	.	4dd\	.	.	4dd\	4ddd\	.
.	.	.	.	.	.	8d\J	.	8f/J	.	8a-J 8B-/	.	.	.	.	.	.	.	.	.	.	.	.	.	.	.	.	.
*	*	*	*	*	*	*	*	*	*	*	*	*	*	*	*	*	*	*	*	*	*	*v	*v	*	*	*	*
=2	=2	=2	=2	=2	=2	=2	=2	=2	=2	=2	=2	=2	=2	=2	=2	=2	=2	=2	=2	=2	=2	=2	=2	=2	=2	=2
*	*	*	*	*	*	*	*	*	*	*	*	*	*	*	*	*	*	*	*	*^	*	*^	*	*	*	*
*	*	*	*	*	*	*	*	*	*	*	*	*	*	*	*	*	*	*	*	*	*	*	*	*	*	*8ba	*	*
!	!	!	!	!	!	!	!	!	!	!	!	!	!LO:SIC:v:s=4E-	!	!	!	!	!	!	!	!	!	!	!	!	!LO:TX:a:t=Col Fl. 8va	!	!
4E-\	p	4E-\yy	pyy	2.r	.	8r	.	8r	.	8r	.	2.ryy	4E\	4E-\	.	(16f/LL	.	8r	.	8r	8ryy	.	(16ff\LL	2.re	.	(yy16ff\LLyy	(16fff\LL	.
.	.	.	.	.	.	.	.	.	.	.	.	.	.	.	.	16e-/	.	.	.	.	.	.	16ee-\	.	.	16ee-\yy	16eee-\	.
.	.	.	.	.	.	8e-\	.	8e-/	.	8g 8B-/	.	.	.	.	.	16d/	.	8B-\	.	8g 8e-\	8ryy	.	16dd\	.	.	16dd\yy	16ddd\	.
.	.	.	.	.	.	.	.	.	.	.	.	.	.	.	.	16e-/JJ	.	.	.	.	.	.	16ee-\JJ	.	.	16ee-\JJyy	16eee-\JJ	.
4r	.	4ryy	.	.	.	8e-\L	.	8e-/L	.	8gL 8B-/	.	.	4r	4r	.	4.B-/)	.	2B-\	.	2g/	2e-\	.	4.b-\)	.	.	4.b-\)yy	4.bb-\)	.
.	.	.	.	.	.	8e-\	.	8e-/	.	8g 8B-/	.	.	.	.	.	.	.	.	.	.	.	.	.	.	.	.	.	.
4r	.	4ryy	.	.	.	8e-\	.	8e-/	.	8g 8B-/	.	.	4r	4r	.	.	.	.	.	.	.	.	.	.	.	.	.	.
.	.	.	.	.	.	8e-\J	.	8e-/J	.	8gJ 8B-/	.	.	.	.	.	8B-/	.	.	.	.	.	.	8b-\	.	.	8b-\yy	8bb-\	.
*	*	*	*	*	*	*	*	*	*	*	*	*	*	*	*	*	*	*	*	*v	*v	*	*	*	*	*	*	*
=3	=3	=3	=3	=3	=3	=3	=3	=3	=3	=3	=3	=3	=3	=3	=3	=3	=3	=3	=3	=3	=3	=3	=3	=3	=3	=3	=3
!	!	!	!	!	!	!	!	!	!	!	!	!	!LO:SIC:v:s=4BB-	!	!	!	!	!	!	!	!	!	!	!	!	!	!
4BB-/	sf	4BB-/yy	sfyy	2.r	.	8r	.	8r	.	8r	.	2.ryy	4BB/	4BB-/	.	(16An/LL	.	8r	.	8r	.	(16a\LL	2.re	.	(yy16an\LLyy	(16aan\LL	.
.	.	.	.	.	.	.	.	.	.	.	.	.	.	.	.	16B-/	.	.	.	.	.	16b-\	.	.	16b-\yy	16bb-\	.
!	!	!	!	!	!	!	!	!	!	!	!LO:DY:rj	!	!	!	!	!	!	!	!	!	!	!	!	!	!	!	!
.	.	.	.	.	.	8d\	.	8f/	sfp	8a- 8B-/	sfp	.	.	.	.	16d/	.	8B-\	.	8a- 8f\	sfp	16dd\	.	.	16dd\yy	16ddd\	.
.	.	.	.	.	.	.	.	.	.	.	.	.	.	.	.	16f/JJ	.	.	.	.	.	16ff\JJ	.	.	16ff\JJyy	16fff\JJ	.
4r	.	4ryy	.	.	.	8d\L	.	8f/L	.	8a-L 8B-/	.	.	4r	4r	.	4a-/)	.	2B-\	.	2a- 2f\	.	4aa-\	.	.	4aa-\)yy	4aaa-\)	.
.	.	.	.	.	.	8d\	.	8f/	.	8a- 8B-/	.	.	.	.	.	.	.	.	.	.	.	.	.	.	.	.	.
4r	.	4ryy	.	.	.	8d\	.	8f/	.	8a- 8B-/	.	.	4r	4r	.	4d/	.	.	.	.	.	4dd\)	.	.	4dd\yy	4ddd\	.
.	.	.	.	.	.	8d\J	.	8f/J	.	8a-J 8B-/	.	.	.	.	.	.	.	.	.	.	.	.	.	.	.	.	.
*	*	*	*	*	*	*	*	*	*	*	*	*	*	*	*	*	*	*	*	*	*	*v	*v	*	*	*	*
*	*	*	*	*	*	*	*	*	*	*	*	*	*	*	*	*	*	*	*	*	*	*	*	*X8ba	*	*
!!LO:PB:g=original
=4	=4	=4	=4	=4	=4	=4	=4	=4	=4	=4	=4	=4	=4	=4	=4	=4	=4	=4	=4	=4	=4	=4	=4	=4	=4	=4
*	*	*	*	*	*	*	*	*	*	*	*	*	*	*	*	*	*	*	*	*	*	*^	*	*	*	*
!	!	!	!	!	!	!	!	!	!	!	!	!	!LO:SIC:v:s=4E-	!	!	!	!	!	!	!	!	!	!	!	!	!	!
4E-\	.	4E-\yy	.	2.r	.	8r	.	8r	.	8r	.	2.ryy	4E\	4E-\	.	(>16f/LL	.	8r	.	8r	sfp	(16ff/LL	2.re	.	2.r	(16fff\LL	.
.	.	.	.	.	.	.	.	.	.	.	.	.	.	.	.	16e-/	.	.	.	.	.	16ee-/	.	.	.	16eee-\	.
.	.	.	.	.	.	8e-\	.	8e-/	.	8g 8B-/	.	.	.	.	.	16d/	.	8B-\	.	8g 8e-\	.	16dd/	.	.	.	16ddd\	.
.	.	.	.	.	.	.	.	.	.	.	.	.	.	.	.	16e-/JJ	.	.	.	.	.	16ee-/JJ	.	.	.	16eee-\JJ	.
!	!	!	!	!	!	!	!	!	!	!LO:TX:a:t=....	!	!	!	!	!	!	!	!	!	!	!	!	!	!	!	!	!
4r	.	4ryy	.	.	.	8e-\L	.	8e-/L	.	(8gL 8B-'>/	.	.	4r	4r	.	16d/LL	.	2B-\	.	2g 2e-\	.	16dd/LL	.	.	.	16ddd\LL	.
.	.	.	.	.	.	.	.	.	.	.	.	.	.	.	.	16e-/	.	.	.	.	.	16ee-/	.	.	.	16eee-\	.
.	.	.	.	.	.	8e-\	.	8e-/	.	8g 8B-'>/	.	.	.	.	.	16g/	.	.	.	.	.	16gg/	.	.	.	16ggg\	.
.	.	.	.	.	.	.	.	.	.	.	.	.	.	.	.	16e-/JJ	.	.	.	.	.	16ee-/JJ	.	.	.	16eee-\JJ	.
4r	.	4ryy	.	.	.	8e-\	.	8e-/	.	8g 8B-'>/	.	.	4r	4r	.	4B-/)	.	.	.	.	.	4b-/)	.	.	.	4bb-\)	.
.	.	.	.	.	.	8e-\J	.	8e-/J	.	8gJ 8B-'>/)	.	.	.	.	.	.	.	.	.	.	.	.	.	.	.	.	.
=5	=5	=5	=5	=5	=5	=5	=5	=5	=5	=5	=5	=5	=5	=5	=5	=5	=5	=5	=5	=5	=5	=5	=5	=5	=5	=5	=5
8GG/	.	8GG/yy	.	2.r	.	8r	.	8r	.	8r	.	2.ryy	2.r	2.r	.	2.r	.	2.r	.	2.r	.	8e-/L	2.re	.	8ee-'\L	8ee-'\L	.
8r	.	8ryy	.	.	.	8G/	.	8B-/	.	8e-/	.	.	.	.	.	.	.	.	.	.	.	16g/L	.	.	(16gg\L	(16gg\L	.
.	.	.	.	.	.	.	.	.	.	.	.	.	.	.	.	.	.	.	.	.	.	16b-/JJ	.	.	16bb-\JJ	16bb-\JJ	.
*rep	*	*repyy	*	*	*	*rep	*	*	*	*rep	*	*	*	*	*	*	*	*	*	*	*	*	*	*	*	*	*
8GG/	.	8GG/yy	.	.	.	8r	.	8r	.	8r	.	.	.	.	.	.	.	.	.	.	.	4ee-/	.	.	4ee-\)	4eee-\)	.
8r	.	8ryy	.	.	.	8G/	.	8B-/	.	8e-/	.	.	.	.	.	.	.	.	.	.	.	.	.	.	.	.	.
*Xrep	*	*Xrep	*	*	*	*Xrep	*	*	*	*Xrep	*	*	*	*	*	*	*	*	*	*	*	*	*	*	*	*	*
*rep	*	*repyy	*	*	*	*rep	*	*	*	*rep	*	*	*	*	*	*	*	*	*	*	*	*	*	*	*	*	*
8GG/	.	8GG/yy	.	.	.	8r	.	8r	.	8r	.	.	.	.	.	.	.	.	.	.	.	4bXt/	.	.	4bnt\	4bbnt\	.
8r	.	8ryy	.	.	.	8G/	<	8Bn/	.	8e-/	<	.	.	.	.	.	.	.	.	.	.	.	.	.	.	.	.
*Xrep	*	*Xrep	*	*	*	*Xrep	*	*	*	*Xrep	*	*	*	*	*	*	*	*	*	*	*	*	*	*	*	*	*
=6	=6	=6	=6	=6	=6	=6	=6	=6	=6	=6	=6	=6	=6	=6	=6	=6	=6	=6	=6	=6	=6	=6	=6	=6	=6	=6	=6
8AA-/	.	8AA-/yy	.	2.r	.	8r	.	8r	.	8r	.	2.ryy	2.r	2.r	.	2.r	.	2.r	.	2.r	.	(16dd/LL	2.re	.	(16dd\LL	(16ddd\LL	.
.	.	.	.	.	.	.	.	.	.	.	.	.	.	.	.	.	.	.	.	.	.	16cc/	.	.	16cc\	16ccc\	.
!	!LO:HP:a	!	!	!	!	!	!	!	!	!	!	!	!	!	!	!	!	!	!	!	!	!	!	!	!	!	!
8r	<	8ryy	.	.	.	8A-/	.	8c/	.	8e-/	.	.	.	.	.	.	.	.	.	.	.	16bX/	.	.	16bn\	16bbn\	.
.	.	.	.	.	.	.	.	.	.	.	.	.	.	.	.	.	.	.	.	.	.	16cc/JJ	.	.	16cc\JJ	16ccc\JJ	.
8AA-/	.	8AA-/yy	.	.	.	8r	.	8r	.	8r	.	.	.	.	.	.	.	.	.	.	.	4.ff/)	.	.	4.ff\)	4.fff\)	.
8r	.	8ryy	.	.	.	8A-/	.	8c/	.	8e-/	.	.	.	.	.	.	.	.	.	.	.	.	.	.	.	.	.
8AAn/	.	8AAn/yy	.	.	.	8r	[	8r	.	8r	.	.	.	.	f	.	.	.	.	.	.	.	.	.	.	.	.
8r	[[	8ryy	.	.	.	8An/	.	8e- 8c/	.	8f/	[	.	.	.	.	.	.	.	.	.	.	8ee-/	.	.	8ee-\	8eee-\	.
=7	=7	=7	=7	=7	=7	=7	=7	=7	=7	=7	=7	=7	=7	=7	=7	=7	=7	=7	=7	=7	=7	=7	=7	=7	=7	=7	=7
!	!LO:DY:rj	!	!LO:DY:rj	!	!	!	!LO:DY:rj	!	!	!	!LO:DY:rj	!	!LO:SIC:v:s=8BB-	!	!	!	!	!	!	!	!	!	!	!	!	!	!
8BB-/	f	8BB-/yy	fyy	2.r	.	8r	f	8r	.	8ddL 8f 8B-'\	f	2.ryy	8BB/	8BB-/	.	8d'/L	.	8r	.	8r	.	8dd/L	2.re	.	8dd'\L	8ddd\	.
!	!	!	!	!	!	!	!	!	!	!	!	!	!	!	!	!	!	!	!	!	!LO:DY:rj	!	!	!	!	!	!
8r	.	8ryy	.	.	.	8d\	.	8f 8B-/	.	(16ff\L	.	.	8r	8r	.	(<16f/L	.	8A-\	.	8f 8B-/	f	16ff/L	.	.	(16ff\L	8r	.
.	.	.	.	.	.	.	.	.	.	16aa-\JJ	.	.	.	.	.	16a-/JJ	.	.	.	.	.	16aa-/JJ	.	.	16aa-\JJ	.	.
*	*	*	*	*	*	*	*	*	*	*	*	*	*rep	*	*	*	*	*	*	*	*	*	*	*	*	*	*
!	!	!	!	!	!	!	!	!	!	!	!	!	!LO:SIC:v:s=8BB-	!	!	!	!	!	!	!	!	!	!	!	!	!	!
8BB-/	.	8BB-/yy	.	.	.	8r	.	8r	.	4ccc\)	.	.	8BB/	2BB-/	.	4cc\)	.	2A-\	.	2f 2B-/	.	4ccc/	.	.	4ccc\)	4r	.
8r	.	8ryy	.	.	.	8d\	.	8f 8B-/	.	.	.	.	8r	.	.	.	.	.	.	.	.	.	.	.	.	.	.
*	*	*	*	*	*	*	*	*	*	*	*	*	*Xrep	*	*	*	*	*	*	*	*	*	*	*	*	*	*
*	*	*	*	*	*	*	*	*	*	*	*	*	*rep	*	*	*	*	*	*	*	*	*	*	*	*	*	*
!	!	!	!	!	!	!	!	!	!	!	!	!	!LO:SIC:v:s=8BB-	!	!	!	!	!	!	!	!	!	!	!	!	!	!
8BB-/	.	8BB-/yy	.	.	.	8r	.	8r	.	4ddt\	.	.	8BB/	.	.	4d/	.	.	.	.	.	4ddt/	.	.	4aa-\	4dddt\	.
8r	.	8ryy	.	.	.	8f\	.	8a- 8B-/	.	.	.	.	8r	.	.	.	.	.	.	.	.	.	.	.	.	.	.
*	*	*	*	*	*	*	*	*	*	*	*	*	*Xrep	*	*	*	*	*	*	*	*	*	*	*	*	*	*
!!LO:PB:g=original
=8	=8	=8	=8	=8	=8	=8	=8	=8	=8	=8	=8	=8	=8	=8	=8	=8	=8	=8	=8	=8	=8	=8	=8	=8	=8	=8	=8
!	!	!	!	!	!	!	!	!	!	!	!	!	!LO:SIC:v:s=8E-	!	!	!	!	!	!	!	!	!	!	!	!	!	!
8E-\L	.	8E-\Lyy	.	2.r	.	8e-\L	.	8gL 8B-/	.	8ee-\L	.	2.ryy	8E\L	8E-\L	.	8e-/L	.	8G\	.	8e-L 8G/	.	8ee-/	8r	.	8gg\L	8eee-\L	.
!	!	!	!	!	!	!	!	!	!	!	!	!	!LO:SIC:v:s=16E-	!	!	!	!	!	!	!	!	!	!	!	!	!	!
16E-\L	.	16E-\Lyy	.	.	.	16gL 16B-\	.	16ee-L 16g/	.	16ggL 16b-\	.	.	16E\L	16E-\L	.	16g/L	.	16B-\LL	.	16gL 16e-/	.	16ggLL 16ee-\	8ryy	.	16bb-\L	16ggg\L	.
!	!	!	!	!	!	!	!	!	!	!	!	!	!LO:SIC:v:s=16E-	!	!	!	!	!	!	!	!	!	!	!	!	!	!
16E-\JJ	.	16E-\JJyy	.	.	.	16gJJ 16B-\	.	16ee-JJ 16g/	.	16ggJJ 16b-\	.	.	16E\JJ	16E-\JJ	.	16g/JJ	.	16B-\JJ	.	16gJJ 16e-/	.	16ggJJ 16ee-\	.	.	16bb-\JJ	16ggg\JJ	.
!	!	!	!	!	!	!	!	!	!	!	!	!	!LO:SIC:v:s=4BB-	!	!	!	!	!	!	!	!	!	!	!	!	!	!
4BB-/	.	4BB-/yy	.	.	.	4f 4B-\	.	4dd 4f/	.	4ff 4b-\	.	.	4BB/	4BB-/	.	4b-/	.	4d\	.	4f 4B-/	.	4ff/	4dd\	.	4bb-\	4fff\	.
4r	.	4ryy	.	.	.	4r	.	4r	.	4r	.	.	4r	4r	.	4r	.	4r	.	4r	.	8ree	4rc	.	4r	4r	.
.	.	.	.	.	.	.	.	.	.	.	.	.	.	.	.	.	.	.	.	.	.	8b-/	.	.	.	.	.
=9	=9	=9	=9	=9	=9	=9	=9	=9	=9	=9	=9	=9	=9	=9	=9	=9	=9	=9	=9	=9	=9	=9	=9	=9	=9	=9	=9
!	!LO:DY:rj	!	!LO:DY:rj	!	!	!	!LO:DY:rj	!	!	!LO:TX:t=P:problem:mixed beam	!LO:DY:rj	!	!LO:SIC:v:s=8E-	!	!	!	!	!	!	!	!	!	!	!	!	!	!
8E-\	f	8E-\yy	fyy	2.r	.	8e-/	f	8g 8B-/	.	8ee-\L	f	2.ryy	8E\	8GG/	.	8e-/	.	8G\	.	8e- 8B-/	.	16ee-|</LL	2.re	.	2.r	2.r	.
.	.	.	.	.	.	.	.	.	.	.	.	.	.	.	.	.	.	.	.	.	.	(<16e-/	.	.	.	.	.
8r	.	8ryy	.	.	.	8G/	p	8B-/	.	8e-/J	p	.	8r	8r	.	8r	.	8r	.	8r	.	16f/	.	.	.	.	.
.	.	.	.	.	.	.	.	.	.	.	.	.	.	.	.	.	.	.	.	.	.	16g/JJ	.	.	.	.	.
!	!LO:DY:rj	!	!LO:DY:rj	!	!	!	!	!	!	!	!	!	!	!	!	!	!	!	!	!	!	!	!	!	!	!	!
8G\	p	8G\yy	pyy	.	.	8r	.	8r	.	8r	.	.	4r	4r	.	4r	.	4r	.	4r	.	16a-/LL	.	.	.	.	.
.	.	.	.	.	.	.	.	.	.	.	.	.	.	.	.	.	.	.	.	.	.	16b-/	.	.	.	.	.
8r	.	8ryy	.	.	.	8G/	.	8B-/	.	8e-/	.	.	.	.	.	.	.	.	.	.	.	16cc/	.	.	.	.	.
.	.	.	.	.	.	.	.	.	.	.	.	.	.	.	.	.	.	.	.	.	.	16dd/JJ	.	.	.	.	.
8G\	.	8G\yy	.	.	.	8r	.	8r	.	8r	.	.	4r	4r	.	4r	.	4r	.	4r	.	16ee-/LL	.	.	.	.	.
.	.	.	.	.	.	.	.	.	.	.	.	.	.	.	.	.	.	.	.	.	.	16ff/	.	.	.	.	.
8r	.	8ryy	.	.	.	8G/	.	8B-/	.	8e-/	.	.	.	.	.	.	.	.	.	.	.	16gg/	.	.	.	.	.
.	.	.	.	.	.	.	.	.	.	.	.	.	.	.	.	.	.	.	.	.	.	16aa-/JJ)	.	.	.	.	.
=10	=10	=10	=10	=10	=10	=10	=10	=10	=10	=10	=10	=10	=10	=10	=10	=10	=10	=10	=10	=10	=10	=10	=10	=10	=10	=10	=10
8G\	.	8G\yy	.	2.r	.	8r	.	8r	.	8r	.	2.ryy	2.r	2.r	.	2.r	.	2.r	.	2.r	.	(<16bb-/LL	2.re	.	2.r	2.r	.
.	.	.	.	.	.	.	.	.	.	.	.	.	.	.	.	.	.	.	.	.	.	16aa-/	.	.	.	.	.
8r	.	8ryy	.	.	.	8G/	.	8B-/	.	8e-/	.	.	.	.	.	.	.	.	.	.	.	16gg/	.	.	.	.	.
.	.	.	.	.	.	.	.	.	.	.	.	.	.	.	.	.	.	.	.	.	.	16ff/JJ)	.	.	.	.	.
*rep	*	*repyy	*	*	*	*rep	*	*rep	*	*rep	*	*	*	*	*	*	*	*	*	*	*	*	*	*	*	*	*
8G\	.	8G\yy	.	.	.	8r	.	8r	.	8r	.	.	.	.	.	.	.	.	.	.	.	(<16gg/LL	.	.	.	.	.
.	.	.	.	.	.	.	.	.	.	.	.	.	.	.	.	.	.	.	.	.	.	16ff/	.	.	.	.	.
8r	.	8ryy	.	.	.	8G/	.	8B-/	.	8e-/	.	.	.	.	.	.	.	.	.	.	.	16ee-/	.	.	.	.	.
*Xrep	*	*Xrep	*	*	*	*Xrep	*	*Xrep	*	*Xrep	*	*	*	*	*	*	*	*	*	*	*	*	*	*	*	*	*
.	.	.	.	.	.	.	.	.	.	.	.	.	.	.	.	.	.	.	.	.	.	16dd/JJ)	.	.	.	.	.
*rep	*	*repyy	*	*	*	*rep	*	*rep	*	*rep	*	*	*	*	*	*	*	*	*	*	*	*	*	*	*	*	*
8G\	.	8G\yy	.	.	.	8r	.	8r	.	8r	.	.	.	.	.	.	.	.	.	.	.	(<16ee-/LL	.	.	.	.	.
.	.	.	.	.	.	.	.	.	.	.	.	.	.	.	.	.	.	.	.	.	.	16dd/	.	.	.	.	.
8r	.	8ryy	.	.	.	8G/	.	8B-/	.	8e-/	.	.	.	.	.	.	.	.	.	.	.	16cc/	.	.	.	.	.
.	.	.	.	.	.	.	.	.	.	.	.	.	.	.	.	.	.	.	.	.	.	16b-/JJ)	.	.	.	.	.
*Xrep	*	*Xrep	*	*	*	*Xrep	*	*Xrep	*	*Xrep	*	*	*	*	*	*	*	*	*	*	*	*	*	*	*	*	*
=11	=11	=11	=11	=11	=11	=11	=11	=11	=11	=11	=11	=11	=11	=11	=11	=11	=11	=11	=11	=11	=11	=11	=11	=11	=11	=11	=11
8A-\	.	8A-\yy	.	2.r	.	8r	.	8r	.	8r	.	2.ryy	2.r	4r	.	4r	.	4r	.	4r	.	8cc'</L	4rd	.	2.r	2.r	.
8r	.	8ryy	.	.	.	8A-/	.	8c/	.	8e-/	.	.	.	.	.	.	.	.	.	.	.	(<16dd/L	.	.	.	.	.
.	.	.	.	.	.	.	.	.	.	.	.	.	.	.	.	.	.	.	.	.	.	16ee-/JJ	.	.	.	.	.
8A-\	.	8A-\yy	.	.	.	8r	.	8r	.	8r	.	.	.	4r	.	4r	.	4r	.	4r	.	16ff/LL	4rc	.	.	.	.
.	.	.	.	.	.	.	.	.	.	.	.	.	.	.	.	.	.	.	.	.	.	16gg/	.	.	.	.	.
8r	.	8ryy	.	.	.	8A-/	.	8c/	.	8e-/	.	.	.	.	.	.	.	.	.	.	.	16aa-/	.	.	.	.	.
.	.	.	.	.	.	.	.	.	.	.	.	.	.	.	.	.	.	.	.	.	.	16bb-/JJ)	.	.	.	.	.
4An^<\	.	4An^<\yy	.	.	.	8r	.	8r	.	8r	.	.	.	4AAn/	.	4c/	.	4An\	.	4g-X 4e-\	.	16ccc/KL	4g-X\	.	.	.	.
.	.	.	.	.	.	.	.	.	.	.	.	.	.	.	.	.	.	.	.	.	.	8ddd^/	.	.	.	.	.
.	.	.	.	.	.	8An^/	.	8e- 8c^/	.	8g-X^/	.	.	.	.	.	.	.	.	.	.	.	.	.	.	.	.	.
.	.	.	.	.	.	.	.	.	.	.	.	.	.	.	.	.	.	.	.	.	.	16eee-/Jk	.	.	.	.	.
!!LO:PB:g=original
=12	=12	=12	=12	=12	=12	=12	=12	=12	=12	=12	=12	=12	=12	=12	=12	=12	=12	=12	=12	=12	=12	=12	=12	=12	=12	=12	=12
*	*	*	*	*	*	*	*	*	*	*	*	*	*	*	*	*	*	*	*	*^	*	*	*	*	*	*	*
8BB-/	.	8BB-/yy	.	2.r	.	8B-/	.	8e-/	.	8gn/	.	2.ryy	2.r	4BB-/	.	4B-/	.	4B-\	.	4gn/	4e-\	.	16eee-|>/LL	4gn\	.	2.r	2.r	.
.	.	.	.	.	.	.	.	.	.	.	.	.	.	.	.	.	.	.	.	.	.	.	(>16gg/	.	.	.	.	.
8r	.	8ryy	.	.	.	8r	.	8r	.	8r	.	.	.	.	.	.	.	.	.	.	.	.	16aa-/	.	.	.	.	.
.	.	.	.	.	.	.	.	.	.	.	.	.	.	.	.	.	.	.	.	.	.	.	16aa/JJ	.	.	.	.	.
8BB-/	.	8BB-/yy	.	.	.	8B-/	.	8e-/	.	8g/	.	.	.	4r	.	4r	.	4r	.	4r	4ryy	.	16bb-/LL)	4re	.	.	.	.
.	.	.	.	.	.	.	.	.	.	.	.	.	.	.	.	.	.	.	.	.	.	.	(>16b-/	.	.	.	.	.
8r	.	8ryy	.	.	.	8r	.	8r	.	8r	.	.	.	.	.	.	.	.	.	.	.	.	16cc/	.	.	.	.	.
.	.	.	.	.	.	.	.	.	.	.	.	.	.	.	.	.	.	.	.	.	.	.	16dd/JJ	.	.	.	.	.
8BB-/	.	8BB-/yy	.	.	.	8B-/	.	8e-/	.	8g/	.	.	.	4r	.	4r	.	4r	.	4r	4ryy	.	16ff/LL	4re	.	.	.	.
.	.	.	.	.	.	.	.	.	.	.	.	.	.	.	.	.	.	.	.	.	.	.	16ee-/	.	.	.	.	.
8r	.	8ryy	.	.	.	8r	.	8r	.	8r	.	.	.	.	.	.	.	.	.	.	.	.	16b-/	.	.	.	.	.
.	.	.	.	.	.	.	.	.	.	.	.	.	.	.	.	.	.	.	.	.	.	.	16g/JJ)	.	.	.	.	.
*	*	*	*	*	*	*	*	*	*	*	*	*	*	*	*	*	*	*	*	*v	*v	*	*	*	*	*	*	*
=13	=13	=13	=13	=13	=13	=13	=13	=13	=13	=13	=13	=13	=13	=13	=13	=13	=13	=13	=13	=13	=13	=13	=13	=13	=13	=13	=13
*tremolo	*	*tremolo	*	*	*	*	*	*	*	*	*	*	*	*	*	*	*	*	*	*	*	*	*	*	*	*	*
8AA-/L	.	8AA-/Lyy	.	2.r	.	8c\L	.	8e-/L	.	8f/L	.	2.ryy	2.r	2.r	.	2.r	.	2.r	.	2.r	.	(2.fTT/	2.re	.	2.r	2.r	.
8AA-/	.	8AA-/yy	.	.	.	8c\	.	8e-/	.	8f/	.	.	.	.	.	.	.	.	.	.	.	.	.	.	.	.	.
8AA-/	.	8AA-/yy	.	.	.	8c\	.	8e-/	.	8f/	.	.	.	.	.	.	.	.	.	.	.	.	.	.	.	.	.
8AA-/	.	8AA-/yy	.	.	.	8c\	.	8e-/	.	8f/	.	.	.	.	.	.	.	.	.	.	.	.	.	.	.	.	.
8AA-/	<	8AA-/yy	<	.	.	8c\	.	8e-/	<	8f/	<	.	.	.	.	.	.	.	.	.	.	.	.	.	.	.	.
8AA-/J	.	8AA-/Jyy	.	.	.	8c\J	.	8e-/J	.	8f/J	.	.	.	.	.	.	.	.	.	.	.	.	.	.	.	.	.
.	.	.	.	.	.	.	.	.	.	.	.	.	.	.	.	.	.	.	.	.	.	16qqeX/LL	.	.	.	.	.
.	.	.	.	.	.	.	.	.	.	.	.	.	.	.	.	.	.	.	.	.	.	16qqf/JJ)	.	.	.	.	.
=14	=14	=14	=14	=14	=14	=14	=14	=14	=14	=14	=14	=14	=14	=14	=14	=14	=14	=14	=14	=14	=14	=14	=14	=14	=14	=14	=14
8BB-/L	.	8BB-/Lyy	.	2.r	.	8B-/L	.	8d/L	.	8b-/L	.	2.ryy	2.r	2.r	.	2.r	.	2.r	.	2.r	.	2.b-TT/	2.r	.	2.r	2.r	.
8BB-/	.	8BB-/yy	.	.	.	8B-/	.	8d/	.	8b-/	.	.	.	.	.	.	.	.	.	.	.	.	.	.	.	.	.
8BB-/	.	8BB-/yy	.	.	.	8B-/	.	8d/	.	8b-/	.	.	.	.	.	.	.	.	.	.	.	.	.	.	.	.	.
8BB-/	.	8BB-/yy	.	.	.	8B-/	.	8d/	[	8b-/	.	.	.	.	.	.	.	.	.	.	.	.	.	.	.	.	.
8BB-/	.	8BB-/yy	.	.	.	8B-/	.	8d/	.	8b-/	.	.	.	.	.	.	.	.	.	.	.	.	.	.	.	.	.
8BB-/J	.	8BB-/Jyy	.	.	.	8B-/J	.	8d/J	.	8b-/J	.	.	.	.	.	.	.	.	.	.	.	.	.	.	.	.	.
.	[	.	[	.	.	.	.	.	.	.	[	.	.	.	.	.	.	.	.	.	.	(16qqa/LL	.	.	.	.	.
.	.	.	.	.	.	.	.	.	.	.	.	.	.	.	.	.	.	.	.	.	.	16qqb-/JJ)	.	.	.	.	.
*Xtremolo	*	*Xtremolo	*	*	*	*Xtremolo	*	*Xtremolo	*	*Xtremolo	*	*	*	*	*	*	*	*	*	*	*	*	*	*	*	*	*
*	*	*	*	*	*	*	*	*	*	*	*	*	*	*	*	*	*	*	*	*	*	*v	*v	*	*	*	*
=15	=15	=15	=15	=15	=15	=15	=15	=15	=15	=15	=15	=15	=15	=15	=15	=15	=15	=15	=15	=15	=15	=15	=15	=15	=15	=15
4E-\	.	4E-\yy	.	2.r	.	4G/	.	4e-/	.	4e-/	.	2.ryy	4r	4r	.	4r	.	4r	.	4r	.	4e-/	.	4r	4r	.
8r	.	8ryy	.	.	.	8r	.	8r	f	8r	f	.	8r	8r	.	8r	f	8r	f	8r	.	8r	f	8r	8r	f
!	!LO:DY:rj	!	!LO:DY:rj	!	!	!	!	!	!	!	!	!	!LO:SIC:v:s=16E-	!	!	!	!	!	!	!	!	!	!	!	!	!
16C/LL	f	16C/LLyy	fyy	.	.	16c\LL	.	16ee-LL 16g\	.	16gg\LL	.	.	16E\LL	16C/LL	.	16g/LL	.	16c\LL	.	16gLL 16e-\	.	16ggLL 16ee-\	.	16gg\LL	16ggg\LL	.
!	!	!	!	!	!	!	!	!	!	!	!	!	!LO:SIC:v:s=16E-	!	!	!	!	!	!	!	!	!	!	!	!	!
16C/JJ	.	16C/JJyy	.	.	.	16c\JJ	.	16ee-JJ 16g\	.	16gg\JJ	.	.	16E\JJ	16C/JJ	.	16g/JJ	.	16c\JJ	.	16gJJ 16e-\	.	16ggJJ 16ee-\	.	16gg\JJ	16ggg\JJ	.
!	!	!	!	!	!	!	!	!	!	!	!	!	!LO:SIC:v:s=8E-	!	!	!	!	!	!	!	!	!	!	!	!	!
8C/L	.	8C/Lyy	.	.	.	8c\L	.	8e-/L	.	8g/L	.	.	8E\L	8C/L	.	8g/L	.	8c\L	.	8gL 8e-\	.	8gL 8e-/	.	8gg\L	8gg\L	.
!	!	!	!	!	!	!	!	!	!	!	!	!	!LO:SIC:v:s=8E-	!	!	!	!	!	!	!	!	!	!	!	!	!
8C-X/J	.	8C-X/Jyy	.	.	.	8c-X\J	.	8e-/J	.	8an/J	.	.	8E\J	8C-X/J	.	8an/J	.	8c-X\J	.	8fJ 8e-\	.	8aJ 8e-/	.	8aan\J	8aan\J	.
!!LO:PB:g=original
=16	=16	=16	=16	=16	=16	=16	=16	=16	=16	=16	=16	=16	=16	=16	=16	=16	=16	=16	=16	=16	=16	=16	=16	=16	=16	=16
!	!	!	!	!	!	!	!	!	!	!	!	!	!LO:SIC:v:s=4BB-	!	!	!	!	!	!	!	!	!	!	!	!	!
4BB-/	.	4BB-/yy	.	2.r	.	4B-/	.	4d/	.	4b-\	.	2.ryy	4BB/	4BB-/	.	4b-/	.	4B-\	.	4f 4B-/	.	4b- 4d/	.	4bb-\	4bb-\	.
4r	.	4ryy	.	.	.	4r	.	4r	.	4r	.	.	4r	4r	.	4r	.	4r	.	8r	.	4r	.	4r	4r	.
.	.	.	.	.	.	.	.	.	.	.	.	.	.	.	.	.	.	.	.	(8a-L 8f\	.	.	.	.	.	.
4r	.	4ryy	.	.	.	4r	.	4r	.	4r	.	.	4r	4r	.	4r	.	4r	.	8g 8e-\	.	4r	.	4r	4r	.
.	.	.	.	.	.	.	.	.	.	.	.	.	.	.	.	.	.	.	.	8fJ 8B-\)	.	.	.	.	.	.
=17	=17	=17	=17	=17	=17	=17	=17	=17	=17	=17	=17	=17	=17	=17	=17	=17	=17	=17	=17	=17	=17	=17	=17	=17	=17	=17
*	*	*	*	*	*	*	*	*	*	*	*	*	*	*	*	*	*	*	*	*	*	*^	*	*	*	*
4E-\	sf	4E-\yy	sfyy	4r	.	8r	.	8r	.	2.r	.	2.ryy	2.r	2.r	.	2.r	.	2.r	.	4e- 4G/	.	4r	2.re	.	2.r	4r	.
!	!	!	!	!	!	!	!	!	!LO:DY:a	!	!	!	!	!	!	!	!	!	!	!	!	!	!	!	!	!	!
.	.	.	.	.	.	16B-LL 16E-/	sfp	16e-LL 16G/	sfp	.	.	.	.	.	.	.	.	.	.	.	.	.	.	.	.	.	.
.	.	.	.	.	.	16B-JJ 16E-/	.	16e-JJ 16G/	.	.	.	.	.	.	.	.	.	.	.	.	.	.	.	.	.	.	.
*	*	*	*	*	*	*tremolo	*	*tremolo	*	*	*	*	*	*	*	*	*	*	*	*	*	*	*	*	*	*	*
4r	.	4ryy	.	4r	.	8B-L 8E-/	.	8e-L 8G/	.	.	.	.	.	.	.	.	.	.	.	4r	.	4r	.	.	.	4r	.
.	.	.	.	.	.	8B- 8E-/	.	8e- 8G/	.	.	.	.	.	.	.	.	.	.	.	.	.	.	.	.	.	.	.
!	!	!	!	!	!	!	!	!	!	!	!	!	!	!	!	!	!	!	!	!	!	!	!	!	!	!	!LO:DY:rj
4r	.	4ryy	.	8.g/	Pra-	8B- 8E-/	.	8e- 8G/	.	.	.	.	.	.	.	.	.	.	.	4r	.	8.g/L	.	.	.	8.gg\L	p
.	.	.	.	.	.	8B-J 8E-/	.	8e-J 8G/	.	.	.	.	.	.	.	.	.	.	.	.	.	.	.	.	.	.	.
.	.	.	.	16a-/	-wa	.	.	.	.	.	.	.	.	.	.	.	.	.	.	.	.	16a-/Jk	.	.	.	16aa-\Jk	.
*	*	*	*	*	*	*Xtremolo	*	*Xtremolo	*	*	*	*	*	*	*	*	*	*	*	*	*	*	*	*	*	*	*
=18	=18	=18	=18	=18	=18	=18	=18	=18	=18	=18	=18	=18	=18	=18	=18	=18	=18	=18	=18	=18	=18	=18	=18	=18	=18	=18	=18
*	*	*	*	*	*	*rep	*	*rep	*	*	*	*	*	*	*	*	*	*	*	*	*	*	*	*	*	*	*
4E-\	sf	4E-\yy	sfyy	4b-\	męsz-	8r	.	8r	.	2.r	.	2.ryy	2.r	2.r	.	2.r	.	2.r	.	2.r	.	4b-/	2.r	.	2.r	(4bb-\	.
!	!	!	!	!	!	!	!	!	!LO:DY:a	!	!	!	!	!	!	!	!	!	!	!	!	!	!	!	!	!	!
.	.	.	.	.	.	16B-LL 16E-/	sfp	16e-LL 16G/	sfp	.	.	.	.	.	.	.	.	.	.	.	.	.	.	.	.	.	.
.	.	.	.	.	.	16B-JJ 16E-/	.	16e-JJ 16G/	.	.	.	.	.	.	.	.	.	.	.	.	.	.	.	.	.	.	.
*	*	*	*	*	*	*tremolo	*	*tremolo	*	*	*	*	*	*	*	*	*	*	*	*	*	*	*	*	*	*	*
4r	.	4ryy	.	4cc\	-czyzn	8B-L 8E-/	.	8e-L 8G/	.	.	.	.	.	.	.	.	.	.	.	.	.	4cc/	.	.	.	4ccc\)	.
.	.	.	.	.	.	8B- 8E-/	.	8e- 8G/	.	.	.	.	.	.	.	.	.	.	.	.	.	.	.	.	.	.	.
4r	.	4ryy	.	8.g/	nas	8B- 8E-/	.	8e- 8G/	.	.	.	.	.	.	.	.	.	.	.	.	.	8.g/L	.	.	.	8.gg\L	.
.	.	.	.	.	.	8B-J 8E-/	.	8e-J 8G/	.	.	.	.	.	.	.	.	.	.	.	.	.	.	.	.	.	.	.
.	.	.	.	16a-/	nie-	.	.	.	.	.	.	.	.	.	.	.	.	.	.	.	.	16a-/Jk	.	.	.	16aa-\Jk	.
*	*	*	*	*	*	*Xtremolo	*	*Xtremolo	*	*	*	*	*	*	*	*	*	*	*	*	*	*	*	*	*	*	*
*	*	*	*	*	*	*Xrep	*	*Xrep	*	*	*	*	*	*	*	*	*	*	*	*	*	*	*	*	*	*	*
*	*	*	*	*	*	*	*	*	*	*	*	*	*	*	*	*	*	*	*	*	*	*v	*v	*	*	*	*
=19	=19	=19	=19	=19	=19	=19	=19	=19	=19	=19	=19	=19	=19	=19	=19	=19	=19	=19	=19	=19	=19	=19	=19	=19	=19	=19
*	*	*	*	*	*	*	*	*	*	*	*	*	*	*	*	*	*	*	*	*^	*	*	*	*	*	*
*	*	*	*	*	*	*rep	*	*rep	*	*	*	*	*	*	*	*	*	*	*	*	*	*	*	*	*	*	*
4E-\	sf	4E-\yy	sfyy	4b-/	-ste-	8r	.	8r	.	4r	.	2.ryy	2.r	2.r	.	2.r	.	2.r	.	4r	2.rf	.	(>4b-/	.	2.r	(4bb-\	.
!	!	!	!	!	!	!	!	!	!LO:DY:a	!	!	!	!	!	!	!	!	!	!	!	!	!	!	!	!	!	!
.	.	.	.	.	.	16B-LL 16E-/	sfp	16e-LL 16G/	sfp	.	.	.	.	.	.	.	.	.	.	.	.	.	.	.	.	.	.
.	.	.	.	.	.	16B-JJ 16E-/	.	16e-JJ 16G/	.	.	.	.	.	.	.	.	.	.	.	.	.	.	.	.	.	.	.
*	*	*	*	*	*	*tremolo	*	*tremolo	*	*	*	*	*	*	*	*	*	*	*	*	*	*	*	*	*	*	*
!	!	!	!	!	!	!	!	!	!	!	!	!	!	!	!	!	!	!	!	!	!	!	!	!	!	!LO:N:vis=4.	!
4r	.	4ryy	.	4g/	-ty	8B-L 8E-/	.	8e-L 8G/	.	4r	.	.	.	.	.	.	.	.	.	4r	.	.	4g/)	.	.	4gg\)	.
.	.	.	.	.	.	8B- 8E-/	.	8e- 8G/	.	.	.	.	.	.	.	.	.	.	.	.	.	.	.	.	.	.	.
!	!	!	!	!	!	!	!	!	!	!	!LO:DY:rj	!	!	!	!	!	!	!	!	!	!	!	!	!	!	!	!
4r	.	4ryy	.	8.b-/	Cią-	8B- 8E-/	.	8e- 8G/	.	8.bb-\L	p	.	.	.	.	.	.	.	.	8.b-/L	.	.	4r	.	.	4r	.
.	.	.	.	.	.	8B-J 8E-/	.	8e-J 8G/	.	.	.	.	.	.	.	.	.	.	.	.	.	.	.	.	.	.	.
.	.	.	.	16g/	-głą	.	.	.	.	16gg\Jk	.	.	.	.	.	.	.	.	.	16g/Jk	.	.	.	.	.	.	.
*	*	*	*	*	*	*Xtremolo	*	*Xtremolo	*	*	*	*	*	*	*	*	*	*	*	*	*	*	*	*	*	*	*
*	*	*	*	*	*	*Xrep	*	*Xrep	*	*	*	*	*	*	*	*	*	*	*	*	*	*	*	*	*	*	*
!!LO:PB:g=original
=20	=20	=20	=20	=20	=20	=20	=20	=20	=20	=20	=20	=20	=20	=20	=20	=20	=20	=20	=20	=20	=20	=20	=20	=20	=20	=20	=20
4E-\	.	4E-\yy	.	4.e-/	na-	8r	.	8r	.	(4.ee-\	.	2.ryy	2.r	2.r	.	2.r	.	2.r	.	4.e- 4.G/	4.ryy	.	2.r	.	2.r	2.r	.
.	.	.	.	.	.	16B-LL 16E-/	.	16e-LL 16G/	.	.	.	.	.	.	.	.	.	.	.	.	.	.	.	.	.	.	.
.	.	.	.	.	.	16B-JJ 16E-/	.	16e-JJ 16G/	.	.	.	.	.	.	.	.	.	.	.	.	.	.	.	.	.	.	.
4r	.	4ryy	.	.	.	8B-L 8E-/	.	8e-L 8G/	.	.	.	.	.	.	.	.	.	.	.	.	.	.	.	.	.	.	.
.	.	.	.	8g/	-peł-	8B-J 8E-/	.	8e-J 8G/	.	8gg\	.	.	.	.	.	.	.	.	.	8g/	8e-\	.	.	.	.	.	.
4BB-/	.	4BB-/yy	.	8f/	-nia-	8r	.	8r	.	8ff\L	.	.	.	.	.	.	.	.	.	4f 4B-/	4ryy	.	.	.	.	.	.
.	.	.	.	8d/	-ią	8B-/	.	8f 8A-/	.	8dd\J	.	.	.	.	.	.	.	.	.	.	.	.	.	.	.	.	.
*	*	*	*	*	*	*	*	*	*	*	*	*	*	*	*	*	*	*	*	*v	*v	*	*	*	*	*	*
=21	=21	=21	=21	=21	=21	=21	=21	=21	=21	=21	=21	=21	=21	=21	=21	=21	=21	=21	=21	=21	=21	=21	=21	=21	=21	=21
*	*	*	*	*	*	*	*	*	*	*	*	*	*	*	*	*	*	*	*	*	*	*^	*	*	*	*
4E-\	sf	4E-\yy	sfyy	8e-/	trwo-	8r	.	8r	.	8ee-\)	.	2.ryy	2.r	2.r	.	2.r	.	2.r	.	4e- 4G/	.	4r	2.re	.	2.r	4r	.
!	!	!	!	!	!	!	!	!	!LO:DY:a	!	!	!	!	!	!	!	!	!	!	!	!	!	!	!	!	!	!
.	.	.	.	8r	.	16B-LL 16E-/	.	16e-LL 16G/	sfp	8r	.	.	.	.	.	.	.	.	.	.	.	.	.	.	.	.	.
.	.	.	.	.	.	16B-JJ 16E-/	.	16e-JJ 16G/	.	.	.	.	.	.	.	.	.	.	.	.	.	.	.	.	.	.	.
*	*	*	*	*	*	*tremolo	*	*tremolo	*	*	*	*	*	*	*	*	*	*	*	*	*	*	*	*	*	*	*
4r	.	4ryy	.	4B-/	-gą,	8B-L 8E-/	.	8e-L 8G/	.	4b-\	.	.	.	.	.	.	.	.	.	4r	.	4r	.	.	.	4r	.
.	.	.	.	.	.	8B- 8E-/	.	8e- 8G/	.	.	.	.	.	.	.	.	.	.	.	.	.	.	.	.	.	.	.
4r	.	4ryy	.	8.g/	Bied-	8B- 8E-/	.	8e- 8G/	.	4r	.	.	.	.	.	.	.	.	.	4r	.	8.g/L	.	.	.	8.gg'\L	.
.	.	.	.	.	.	8B-J 8E-/	.	8e-J 8G/	.	.	.	.	.	.	.	.	.	.	.	.	.	.	.	.	.	.	.
.	.	.	.	16a-/	-ne	.	.	.	.	.	.	.	.	.	.	.	.	.	.	.	.	16a-/Jk	.	.	.	16aa-'\Jk	.
*	*	*	*	*	*	*Xtremolo	*	*Xtremolo	*	*	*	*	*	*	*	*	*	*	*	*	*	*	*	*	*	*	*
=22	=22	=22	=22	=22	=22	=22	=22	=22	=22	=22	=22	=22	=22	=22	=22	=22	=22	=22	=22	=22	=22	=22	=22	=22	=22	=22	=22
*	*	*	*	*	*	*rep	*	*rep	*	*	*	*	*	*	*	*	*	*	*	*	*	*	*	*	*	*	*
4E-\	sf	4E-\yy	sfyy	4b-/	bez	8r	.	8r	.	2.r	.	2.ryy	2.r	2.r	.	2.r	.	2.r	.	2.r	.	4b-/	2.r	.	2.r	(4bb-\	.
.	.	.	.	.	.	16B-LL 16E-/	.	16e-LL 16G/	.	.	.	.	.	.	.	.	.	.	.	.	.	.	.	.	.	.	.
.	.	.	.	.	.	16B-JJ 16E-/	.	16e-JJ 16G/	.	.	.	.	.	.	.	.	.	.	.	.	.	.	.	.	.	.	.
*	*	*	*	*	*	*tremolo	*	*tremolo	*	*	*	*	*	*	*	*	*	*	*	*	*	*	*	*	*	*	*
4r	.	4ryy	.	4cc/	nich	8B-L 8E-/	.	8e-L 8G/	.	.	.	.	.	.	.	.	.	.	.	.	.	4cc/	.	.	.	4ccc\)	.
.	.	.	.	.	.	8B- 8E-/	.	8e- 8G/	.	.	.	.	.	.	.	.	.	.	.	.	.	.	.	.	.	.	.
4r	.	4ryy	.	8.g/	dziś	8B- 8E-/	.	8e- 8G/	.	.	.	.	.	.	.	.	.	.	.	.	.	8.g/L	.	.	.	8.gg|\L	.
.	.	.	.	.	.	8B-J 8E-/	.	8e-J 8G/	.	.	.	.	.	.	.	.	.	.	.	.	.	.	.	.	.	.	.
.	.	.	.	16a-/	ko-	.	.	.	.	.	.	.	.	.	.	.	.	.	.	.	.	16a-/Jk	.	.	.	16aa-|\Jk	.
*	*	*	*	*	*	*Xtremolo	*	*Xtremolo	*	*	*	*	*	*	*	*	*	*	*	*	*	*	*	*	*	*	*
*	*	*	*	*	*	*Xrep	*	*Xrep	*	*	*	*	*	*	*	*	*	*	*	*	*	*	*	*	*	*	*
=23	=23	=23	=23	=23	=23	=23	=23	=23	=23	=23	=23	=23	=23	=23	=23	=23	=23	=23	=23	=23	=23	=23	=23	=23	=23	=23	=23
*	*	*	*	*	*	*rep	*	*rep	*	*	*	*	*	*	*	*	*	*	*	*	*	*	*	*	*	*	*
4E-\	sf	4E-\yy	sfyy	4b-/	-bie-	8r	.	8r	.	4r	.	2.ryy	2.r	2.r	.	2.r	.	2.r	.	4r	.	4b-/	2.r	.	2.r	(4bb-\	.
.	.	.	.	.	.	16B-LL 16E-/	.	16e-LL 16G/	.	.	.	.	.	.	.	.	.	.	.	.	.	.	.	.	.	.	.
.	.	.	.	.	.	16B-JJ 16E-/	.	16e-JJ 16G/	.	.	.	.	.	.	.	.	.	.	.	.	.	.	.	.	.	.	.
*	*	*	*	*	*	*tremolo	*	*tremolo	*	*	*	*	*	*	*	*	*	*	*	*	*	*	*	*	*	*	*
4r	.	4ryy	.	4g/	-ty	8B-L 8E-/	.	8e-L 8G/	.	4r	.	.	.	.	.	.	.	.	.	4r	.	4g/	.	.	.	4gg\)	.
.	.	.	.	.	.	8B- 8E-/	.	8e- 8G/	.	.	.	.	.	.	.	.	.	.	.	.	.	.	.	.	.	.	.
4r	.	4ryy	.	8.b-/	na-	8B- 8E-/	.	8e- 8G/	.	8.b-/L	.	.	.	.	.	.	.	.	.	8.b-L 8.g\	.	4r	.	.	.	4r	.
.	.	.	.	.	.	8B-J 8E-/	.	8e-J 8G/	.	.	.	.	.	.	.	.	.	.	.	.	.	.	.	.	.	.	.
.	.	.	.	16g/	-wet	.	.	.	.	16g/Jk	.	.	.	.	.	.	.	.	.	16gJk 16e-\	.	.	.	.	.	.	.
*	*	*	*	*	*	*Xtremolo	*	*Xtremolo	*	*	*	*	*	*	*	*	*	*	*	*	*	*	*	*	*	*	*
*	*	*	*	*	*	*Xrep	*	*Xrep	*	*	*	*	*	*	*	*	*	*	*	*	*	*	*	*	*	*	*
*	*	*	*	*	*	*	*	*	*	*	*	*	*	*	*	*	*	*	*	*	*	*v	*v	*	*	*	*
=24	=24	=24	=24	=24	=24	=24	=24	=24	=24	=24	=24	=24	=24	=24	=24	=24	=24	=24	=24	=24	=24	=24	=24	=24	=24	=24
*	*	*	*	*	*	*	*	*	*	*	*	*	*	*	*	*	*	*	*	*^	*	*	*	*	*	*
!	!	!	!	!	!	!	!	!	!	!	!	!	!	!	!	!	!	!	!LO:DY:a	!	!	!	!	!	!	!	!
8F\	.	8F\yy	.	8f/	pi-	8r	.	8r	.	8f'/L	.	2.ryy	2.r	2.r	.	2.r	.	4.d\	p	4.f 4.B-/	4.ryy	.	2.r	.	2.r	2.r	.
8r	.	8ryy	.	(16b-\LL	-sać	8F/	.	8d 8B-/	.	(<16b-/L	.	.	.	.	.	.	.	.	.	.	.	.	.	.	.	.	.
.	.	.	.	16dd\JJ)	.	.	.	.	.	16dd/JJ	.	.	.	.	.	.	.	.	.	.	.	.	.	.	.	.	.
8F\	.	8F\yy	.	8ff\	iuż	8r	.	8r	.	8ff\)	.	.	.	.	.	.	.	.	.	.	.	.	.	.	.	.	.
8r	.	8ryy	.	(8gg\L	nie	8F/	.	8d 8B-/	.	8r	.	.	.	.	.	.	.	8r	.	8r	8ryy	.	.	.	.	.	.
8FF/	.	8FF/yy	.	8.ff\J)	.	8r	.	8r	.	4r	.	.	.	.	.	.	.	4c\	.	4f/	4e-\	.	.	.	.	.	.
8r	.	8ryy	.	.	.	8F/	.	8e- 8c/	.	.	.	.	.	.	.	.	.	.	.	.	.	.	.	.	.	.	.
.	.	.	.	16an\	nie	.	.	.	.	.	.	.	.	.	.	.	.	.	.	.	.	.	.	.	.	.	.
!!LO:PB:g=original
=25	=25	=25	=25	=25	=25	=25	=25	=25	=25	=25	=25	=25	=25	=25	=25	=25	=25	=25	=25	=25	=25	=25	=25	=25	=25	=25	=25
8BB-/	.	8BB-/yy	.	8cc\	mo-	8r	.	8r	.	4r	.	2.ryy	4r	4r	.	4r	.	8B-\	.	8f/	8d\	.	4r	.	4r	4r	.
!	!	!	!	!	!	!LO:TX:t=P:problem:mixed beam	!	!	!	!	!	!	!	!	!	!	!	!	!	!	!	!	!	!	!	!	!
8r	.	8ryy	.	8b-\	-gą	8F/L	.	8dL 8B-/	.	.	.	.	.	.	.	.	.	8r	.	8r	8ryy	.	.	.	.	.	.
!	!	!	!	!	!	!	!	!	!	!	!LO:DY:rj	!	!LO:SIC:v:s=8BB-	!	!	!	!	!	!	!	!	!	!	!	!	!	!
8BB-/	sf	8BB-/yy	sfyy	4r	.	8fJ 8B-\	sf	8dJ 8B-/	.	8bb- 8b- 8d\	sf	.	8BB/	8BB-/	.	8b-/	.	8BB-/	.	8f 8B-/	8ryy	sf	8ff 8dd\	sf	8bb-\	8bb-\	sf
8r	.	8ryy	.	.	.	8r	.	8r	.	8r	.	.	8r	8r	.	8r	.	8r	.	8r	8ryy	.	8r	.	8r	8r	.
!	!LO:DY:rj	!	!LO:DY:rj	!	!	!	!	!	!	!	!LO:DY:rj	!	!LO:SIC:v:s=4E-	!	!	!	!LO:DY:rj	!	!LO:DY:rj	!	!	!LO:DY:rj	!	!	!	!	!LO:DY:rj
4E-\	f	4E-\yy	fyy	4r	.	4e-\	f	4g 4B-/	.	8.bb-^<\L	f	.	4E\	4E-\	.	8.b-/L	f	[4B-\	f	4g/	4e-\	f	8.b-L 8.g/	f	8.bb-\L	8.bb-\L	f
.	.	.	.	.	.	.	.	.	.	16gg\Jk	.	.	.	.	.	16g/Jk	.	.	.	.	.	.	16gJk 16e-/	.	16gg\Jk	16gg\Jk	.
=26	=26	=26	=26	=26	=26	=26	=26	=26	=26	=26	=26	=26	=26	=26	=26	=26	=26	=26	=26	=26	=26	=26	=26	=26	=26	=26	=26
!	!	!	!	!	!	!	!	!	!	!	!	!	!LO:SIC:v:s=8BB-	!	!	!	!	!	!	!	!	!	!	!	!	!	!
8F\	.	8F\yy	.	2.r	.	8d\	.	8f 8B-/	.	8ff'\L	.	2.ryy	8BB/	8F\	.	8f/L	.	8B-\L]	.	8f\	8ryy	.	8fL 8d'/	.	8ff'\L	8ff'\L	.
8r	.	8ryy	.	.	.	8r	.	8r	.	(16bb-\L	.	.	8r	8r	.	(16b-/L	.	16d\L	.	8r	8ryy	.	(16b-L 16g/	.	(16ff\L	(16bb-\L	.
.	.	.	.	.	.	.	.	.	.	16ddd\JJ	.	.	.	.	.	16dd/JJ	.	16f\JJ	.	.	.	.	16ddJJ 16b-/)	.	16bb-\JJ	16ddd\JJ	.
!	!	!	!	!	!	!	!	!	!	!	!	!	!LO:SIC:v:s=8BB-	!	!	!	!	!	!	!	!	!	!	!	!	!	!
8F\	.	8F\yy	.	.	.	8f 8B-\	.	8dd 8f/	.	8fff\)	.	.	8BB/	8F\	.	8b-/)	.	8B-\	.	8f\	8ryy	.	8ff 8dd\	.	8ddd\)	8fff\)	.
8r	.	8ryy	.	.	.	8r	.	8r	.	8r	.	.	8r	8r	.	8r	.	8r	.	8r	8ryy	.	8r	.	8r	8r	.
!	!	!	!	!	!	!	!	!	!	!	!	!	!LO:SIC:v:s=4E-	!	!	!	!	!	!	!	!	!	!	!	!	!	!
4F\	.	4F\yy	.	.	.	4f 4c\	.	4ee- 4f/	.	4aan 4cc 4f\	.	.	4E\	4F\	.	4an/	.	4c\	.	4f/	4e-\	.	4ee- 4cc\	.	4aan\	4aant\	.
*	*	*	*	*	*	*	*	*	*	*	*	*	*	*	*	*	*	*	*	*v	*v	*	*	*	*	*	*
=27	=27	=27	=27	=27	=27	=27	=27	=27	=27	=27	=27	=27	=27	=27	=27	=27	=27	=27	=27	=27	=27	=27	=27	=27	=27	=27
*	*	*	*	*	*	*	*	*	*	*	*	*	*	*	*	*	*	*	*	*	*	*^	*	*	*	*
!	!	!	!	!	!	!	!	!	!	!	!	!	!LO:SIC:v:s=4BB-	!	!	!	!	!	!	!	!	!	!	!	!	!	!
4BB-/	.	4BB-/yy	.	4r	.	4f 4B-\	.	4dd 4f 4B-/	.	4bb- 4dd 4f\	.	2.ryy	4BB/	4BB-/	.	4b-/	.	4B-\	.	8f 8B-/	.	4dd/	4b-\	.	4bb-\	4bb-\	.
.	.	.	.	.	.	.	.	.	.	.	.	.	.	.	.	.	.	.	.	(8b- 8B-'\	.	.	.	.	.	.	.
*	*	*	*	*	*	*	*	*	*	*	*	*	*	*	*	*	*	*	*	*tremolo	*	*	*	*	*	*	*
!	!	!	!	!	!	!	!	!	!	!	!	!	!	!	!	!	!	!	!	!LO:TX:a:t=....	!	!	!	!	!	!	!
4r	.	4ryy	.	4r	.	4r	.	4r	.	4r	.	.	4r	4r	.	4r	.	4r	.	8b-L 8B-'\	.	4r	4ryy	.	4r	4r	.
.	.	.	.	.	.	.	.	.	.	.	.	.	.	.	.	.	.	.	.	8b- 8B-'\	.	.	.	.	.	.	.
!	!	!	!	!	!	!	!	!	!	!	!	!	!	!	!	!	!	!	!	!	!	!	!	!LO:DY:a:rj	!	!	!
4r	.	4ryy	.	8b-\	Cho-	4r	.	4r	.	4r	.	.	4r	4r	.	4r	.	4r	.	8b- 8B-'\	.	8b-'/L	4rByy	p	4r	4r	.
.	.	.	.	8b-\	-ciasz	.	.	.	.	.	.	.	.	.	.	.	.	.	.	8b-J 8B-'\)	.	8b-'/J	.	.	.	.	.
*	*	*	*	*	*	*	*	*	*	*	*	*	*	*	*	*	*	*	*	*Xtremolo	*	*	*	*	*	*	*
=28	=28	=28	=28	=28	=28	=28	=28	=28	=28	=28	=28	=28	=28	=28	=28	=28	=28	=28	=28	=28	=28	=28	=28	=28	=28	=28	=28
!	!	!	!	!	!	!	!	!	!	!	!	!	!	!	!	!	!	!	!	!	!LO:DY:rj	!	!	!	!	!	!
8F\	pp	8F\yy	ppyy	8a-/L	nam	8r	.	8r	.	8r	.	2.ryy	2.r	2.r	.	2.r	.	2.r	.	2.f 2.B-/	p	(16aa-/LL	2.re	.	2.r	2.r	.
.	.	.	.	.	.	.	.	.	.	.	.	.	.	.	.	.	.	.	.	.	.	16gg/	.	.	.	.	.
8r	.	8ryy	.	8b-/J	.	8d\	pp	8a- 8B-/	.	8bb- 8b-\	pp	.	.	.	.	.	.	.	.	.	.	16ff/	.	.	.	.	.
.	.	.	.	.	.	.	.	.	.	.	.	.	.	.	.	.	.	.	.	.	.	16ee-/JJ	.	.	.	.	.
*	*	*	*	*	*	*rep	*	*rep	*	*rep	*	*	*	*	*	*	*	*	*	*	*	*	*	*	*	*	*
8BB-/	.	8BB-/yy	.	8a-/L	do-	8r	.	8r	.	8r	.	.	.	.	.	.	.	.	.	.	.	16dd/LL	.	.	.	.	.
.	.	.	.	.	.	.	.	.	.	.	.	.	.	.	.	.	.	.	.	.	.	16cc/	.	.	.	.	.
8r	.	8ryy	.	8b-/J	.	8d\	.	8a- 8B-/	.	8bb- 8b-\	.	.	.	.	.	.	.	.	.	.	.	16b-/	.	.	.	.	.
*	*	*	*	*	*	*Xrep	*	*Xrep	*	*Xrep	*	*	*	*	*	*	*	*	*	*	*	*	*	*	*	*	*
.	.	.	.	.	.	.	.	.	.	.	.	.	.	.	.	.	.	.	.	.	.	16a-/JJ	.	.	.	.	.
*	*	*	*	*	*	*rep	*	*rep	*	*rep	*	*	*	*	*	*	*	*	*	*	*	*	*	*	*	*	*
8F\	.	8F\yy	.	8a-/	-wo-	8r	.	8r	.	8r	.	.	.	.	.	.	.	.	.	.	.	16g/LL	.	.	.	.	.
.	.	.	.	.	.	.	.	.	.	.	.	.	.	.	.	.	.	.	.	.	.	16f/	.	.	.	.	.
8r	.	8ryy	.	8b-/	-dzą	8d\	.	8a- 8B-/	.	8bb- 8b-\	.	.	.	.	.	.	.	.	.	.	.	16e-/	.	.	.	.	.
.	.	.	.	.	.	.	.	.	.	.	.	.	.	.	.	.	.	.	.	.	.	16d/JJ	.	.	.	.	.
*	*	*	*	*	*	*Xrep	*	*Xrep	*	*Xrep	*	*	*	*	*	*	*	*	*	*	*	*	*	*	*	*	*
=29	=29	=29	=29	=29	=29	=29	=29	=29	=29	=29	=29	=29	=29	=29	=29	=29	=29	=29	=29	=29	=29	=29	=29	=29	=29	=29	=29
8E-\	.	8E-\yy	.	8.g/L	fa-	8r	.	8r	.	8r	.	2.ryy	2.r	2.r	.	2.r	.	2.r	.	4.e- 4.G/	.	&(<16e-/LL	2.re	.	2.r	2.r	.
.	.	.	.	.	.	.	.	.	.	.	.	.	.	.	.	.	.	.	.	.	.	16g/	.	.	.	.	.
8r	.	8ryy	.	.	.	8e-\	.	8g 8B-/	.	8bb- 8b-\	.	.	.	.	.	.	.	.	.	.	.	16b-/)	.	.	.	.	.
.	.	.	.	16cc/Jk	.	.	.	.	.	.	.	.	.	.	.	.	.	.	.	.	.	16cc/JJ	.	.	.	.	.
*	*	*	*	*	*	*rep	*	*rep	*	*rep	*	*	*	*	*	*	*	*	*	*	*	*	*	*	*	*	*
8BB-/	.	8BB-/yy	.	8b-/	-cta,	8r	.	8r	.	8r	.	.	.	.	.	.	.	.	.	.	.	8b-/&)	.	.	.	.	.
8r	.	8ryy	.	8r	.	8e-\	.	8g 8B-/	.	8bb- 8b-\	.	.	.	.	.	.	.	.	.	8e-L 8G/	.	8r	.	.	.	.	.
*	*	*	*	*	*	*Xrep	*	*Xrep	*	*Xrep	*	*	*	*	*	*	*	*	*	*	*	*	*	*	*	*	*
*	*	*	*	*	*	*rep	*	*rep	*	*rep	*	*	*	*	*	*	*	*	*	*	*	*	*	*	*	*	*
8E-\	.	8E-\yy	.	8b-/	Że	8r	.	8r	.	8r	.	.	.	.	.	.	.	.	.	8e- 8G/	.	8.b-/L	.	.	.	.	.
8r	.	8ryy	.	8b-/	bez	8e-\	.	8g 8B-/	.	8bb- 8b-\	.	.	.	.	.	.	.	.	.	8gJ 8e-/	.	.	.	.	.	.	.
.	.	.	.	.	.	.	.	.	.	.	.	.	.	.	.	.	.	.	.	.	.	16b-/Jk	.	.	.	.	.
*	*	*	*	*	*	*Xrep	*	*Xrep	*	*Xrep	*	*	*	*	*	*	*	*	*	*	*	*	*	*	*	*	*
!!LO:PB:g=original
=30	=30	=30	=30	=30	=30	=30	=30	=30	=30	=30	=30	=30	=30	=30	=30	=30	=30	=30	=30	=30	=30	=30	=30	=30	=30	=30	=30
!	!	!	!	!	!	!	!	!	!	!	!	!	!	!	!	!	!	!	!	!	!	!LO:TX:a:t=clarin:problem:partia wpisana linijkę wyżej	!	!	!LO:TX:a:t=oboe:problem:partia wpisana linijkę niżej	!	!
8F\	.	8F\yy	.	8a-/L	a-	8r	.	8r	.	8r	.	2.ryy	2.r	2.r	.	2.r	.	2.r	.	2.f 2.B-/	.	16aa-/LL	2.re	.	2.r	2.r	.
.	.	.	.	.	.	.	.	.	.	.	.	.	.	.	.	.	.	.	.	.	.	16gg/	.	.	.	.	.
8r	.	8ryy	.	8b-/J	.	8d\	.	8a- 8B-/	.	8bb- 8b-\	.	.	.	.	.	.	.	.	.	.	.	16ff/	.	.	.	.	.
.	.	.	.	.	.	.	.	.	.	.	.	.	.	.	.	.	.	.	.	.	.	16ee-/JJ	.	.	.	.	.
*	*	*	*	*	*	*rep	*	*rep	*	*rep	*	*	*	*	*	*	*	*	*	*	*	*	*	*	*	*	*
8BB-/	.	8BB-/yy	.	8a-/L	-sy-	8r	.	8r	.	8r	.	.	.	.	.	.	.	.	.	.	.	16dd/LL	.	.	.	.	.
.	.	.	.	.	.	.	.	.	.	.	.	.	.	.	.	.	.	.	.	.	.	16cc/	.	.	.	.	.
8r	.	8ryy	.	8b-/J	.	8d\	.	8a- 8B-/	.	8bb- 8b-\	.	.	.	.	.	.	.	.	.	.	.	16b-/	.	.	.	.	.
*	*	*	*	*	*	*Xrep	*	*Xrep	*	*Xrep	*	*	*	*	*	*	*	*	*	*	*	*	*	*	*	*	*
.	.	.	.	.	.	.	.	.	.	.	.	.	.	.	.	.	.	.	.	.	.	16a-/JJ	.	.	.	.	.
*	*	*	*	*	*	*rep	*	*rep	*	*rep	*	*	*	*	*	*	*	*	*	*	*	*	*	*	*	*	*
8F\	.	8F\yy	.	8a-/	-sten-	8r	.	8r	.	8r	.	.	.	.	.	.	.	.	.	.	.	16g/LL	.	.	.	.	.
.	.	.	.	.	.	.	.	.	.	.	.	.	.	.	.	.	.	.	.	.	.	16f/	.	.	.	.	.
8r	.	8ryy	.	8b-/	cyj	8d\	.	8a- 8B-/	.	8bb- 8b-\	.	.	.	.	.	.	.	.	.	.	.	16e-/	.	.	.	.	.
.	.	.	.	.	.	.	.	.	.	.	.	.	.	.	.	.	.	.	.	.	.	16d/JJ	.	.	.	.	.
*	*	*	*	*	*	*Xrep	*	*Xrep	*	*Xrep	*	*	*	*	*	*	*	*	*	*	*	*	*	*	*	*	*
=31	=31	=31	=31	=31	=31	=31	=31	=31	=31	=31	=31	=31	=31	=31	=31	=31	=31	=31	=31	=31	=31	=31	=31	=31	=31	=31	=31
4E-\	.	4E-\yy	.	8.g/L	mę-	8r	.	8r	.	(8.gg\L	.	2.ryy	2.ryy	2.ryy	.	2.ryy	.	2.r	.	4.e- 4.G/	.	(<16e-/LL	2.re	.	2.r	4r	.
.	.	.	.	.	.	.	.	.	.	.	.	.	.	.	.	.	.	.	.	.	.	16g/	.	.	.	.	.
.	.	.	.	.	.	8e-\	.	8g 8B-/	.	.	.	.	.	.	.	.	.	.	.	.	.	16b-/	.	.	.	.	.
.	.	.	.	16cc/Jk	.	.	.	.	.	16ccc\Jk	.	.	.	.	.	.	.	.	.	.	.	16cc/JJ	.	.	.	.	.
4r	.	4ryy	.	4b-/	-ża	4e-\	.	4g 4B-/	.	4bb-\)	.	.	.	.	.	.	.	.	.	.	.	8b-/)	.	.	.	4r	.
.	.	.	.	.	.	.	.	.	.	.	.	.	.	.	.	.	.	.	.	8r	.	8r	.	.	.	.	.
!	!	!	!	!	!	!	!	!	!	!	!	!	!	!	!	!	!	!	!	!	!	!	!	!	!	!	!LO:DY:rj
4r	.	4ryy	.	8.g/	Żo-	4r	.	4r	.	4r	.	.	.	.	.	.	.	.	.	4r	.	8.g/L	.	.	.	8.gg\L	p
.	.	.	.	16a-/	-ny	.	.	.	.	.	.	.	.	.	.	.	.	.	.	.	.	16a-/Jk	.	.	.	16aa-\Jk	.
=32	=32	=32	=32	=32	=32	=32	=32	=32	=32	=32	=32	=32	=32	=32	=32	=32	=32	=32	=32	=32	=32	=32	=32	=32	=32	=32	=32
4.GG/	.	4.GG/yy	.	4b-/	czę-	8r	.	8r	.	8r	.	2.ryy	2.ryy	2.ryy	.	2.ryy	.	2.r	.	2.r	.	(4b-/	2.r	.	2.r	(4bb-\	.
.	.	.	.	.	.	8G/L	.	8e-/L	.	8b-/L	.	.	.	.	.	.	.	.	.	.	.	.	.	.	.	.	.
.	.	.	.	8e-/	-sto	8G/J	.	8e-/J	.	8b-/J	.	.	.	.	.	.	.	.	.	.	.	8e-/)	.	.	.	8ee-\)	.
8r	.	8ryy	.	8r	.	8r	.	8r	.	8r	.	.	.	.	.	.	.	.	.	.	.	8r	.	.	.	8r	.
4r	.	4ryy	.	8.ee-\	ro-	4r	.	4r	.	4r	.	.	.	.	.	.	.	.	.	.	.	8.ee-/L	.	.	.	8.eee-\L	.
.	.	.	.	16dd\	-bią	.	.	.	.	.	.	.	.	.	.	.	.	.	.	.	.	16dd/Jk	.	.	.	16ddd\Jk	.
=33	=33	=33	=33	=33	=33	=33	=33	=33	=33	=33	=33	=33	=33	=33	=33	=33	=33	=33	=33	=33	=33	=33	=33	=33	=33	=33	=33
*	*	*	*	*	*	*	*	*	*	*	*	*	*	*	*	*	*	*	*	*^	*	*	*	*	*	*	*
4.AA-/	.	4.AA-/yy	.	(8bn\L	a-	8r	.	8r	.	8r	.	2.ryy	2.ryy	2.ryy	.	2.ryy	.	4r	.	4r	4ryy	.	[<8bX/L	2.r	.	2.r	(8bbn\L	.
.	.	.	.	32b\LL	.	8c/L	.	8e-/L	.	8f/L	.	.	.	.	.	.	.	.	.	.	.	.	32b/LL]	.	.	.	32bb\LL	.
.	.	.	.	32cc\	.	.	.	.	.	.	.	.	.	.	.	.	.	.	.	.	.	.	(<32cc/	.	.	.	32ccc\	.
.	.	.	.	32dd\	.	.	.	.	.	.	.	.	.	.	.	.	.	.	.	.	.	.	32dd/	.	.	.	32ddd\	.
.	.	.	.	32cc\JJJ)	.	.	.	.	.	.	.	.	.	.	.	.	.	.	.	.	.	.	32cc/JJJ	.	.	.	32ccc\JJJ	.
.	.	.	.	8cc\	-cta	8c/J	.	8e-/J	.	8f/J	.	.	.	.	.	.	.	4r	.	4r	4ryy	.	8cc/)	.	.	.	8ccc\)	.
8r	.	8ryy	.	8r	.	8r	.	8r	.	8r	.	.	.	.	.	.	.	.	.	.	.	.	8r	.	.	.	8r	.
4AAn^/	.	4AAn^/yy	.	8.cc\	I	4c^/	.	4e-^>/	.	4g-X^>/	.	.	.	.	.	.	.	(4An^\	.	4g-X/	4e-\	.	4r	.	.	.	4r	.
.	.	.	.	16ee-\	to	.	.	.	.	.	.	.	.	.	.	.	.	.	.	.	.	.	.	.	.	.	.	.
*	*	*	*	*	*	*	*	*	*	*	*	*	*	*	*	*	*	*	*	*	*	*	*v	*v	*	*	*	*
=34	=34	=34	=34	=34	=34	=34	=34	=34	=34	=34	=34	=34	=34	=34	=34	=34	=34	=34	=34	=34	=34	=34	=34	=34	=34	=34	=34
8BB-/	.	8BB-/yy	.	4.b-/	praw-	8r	.	8r	.	8r	.	2.ryy	2.ryy	2.ryy	.	2.ryy	.	4B-\)	.	2gn/	2e-\	.	2.r	.	2.r	2.r	.
8r	.	8ryy	.	.	.	8B-/	.	8e-/	.	8gn/	.	.	.	.	.	.	.	.	.	.	.	.	.	.	.	.	.
8BB-/	.	8BB-/yy	.	.	.	8r	.	8r	.	8r	.	.	.	.	.	.	.	4r	.	.	.	.	.	.	.	.	.
8r	.	8ryy	.	8g/	-nie	8B-/	.	8e-/	.	8g/	.	.	.	.	.	.	.	.	.	.	.	.	.	.	.	.	.
8BB-/	.	8BB-/yy	.	8.f/	nad-	8r	.	8r	.	8r	.	.	.	.	.	.	.	4r	.	4f 4B-/	4ryy	.	.	.	.	.	.
8r	.	8ryy	.	.	.	8B-/	.	8d/	.	8a-/	.	.	.	.	.	.	.	.	.	.	.	.	.	.	.	.	.
.	.	.	.	16b-/	-we-	.	.	.	.	.	.	.	.	.	.	.	.	.	.	.	.	.	.	.	.	.	.
!!LO:PB:g=original
=35	=35	=35	=35	=35	=35	=35	=35	=35	=35	=35	=35	=35	=35	=35	=35	=35	=35	=35	=35	=35	=35	=35	=35	=35	=35	=35	=35
*	*	*	*	*	*	*	*	*	*	*	*	*	*	*	*	*	*	*	*	*	*	*	*^	*	*	*	*
!LO:TX:t=P:problem:diminuendolike accent	!	!LO:TX:t=P:problem:diminuendolike accent	!	!LO:TX:b:t=P:problem:diminuendolike accent	!	!LO:TX:t=P:problem:diminuendolike accent	!	!LO:TX:t=P:problem:diminuendolike accent	!	!LO:TX:t=P:problem:diminuendolike accent	!	!	!	!	!	!	!	!	!	!	!	!	!	!	!	!	!	!
(4BBn^>/	.	(yy4BBn^>/yy	.	4a-^/	-rę-	(4f^<\	.	(4d^>/	.	(4a-^>/	.	2.ryy	2.r	2.r	.	2.r	.	(4BBn/	.	(4a-/	4f^\	.	4r	2.re	.	2.r	4r	.
8C/)	.	8C/)yy	.	8g/	-ża	8e-\)	.	8e-/)	.	8g/)	.	.	.	.	.	.	.	8C/)	.	8g/)	8e-\	.	4r	.	.	.	4r	.
8r	.	8ryy	.	8r	.	8r	.	8r	.	8r	.	.	.	.	.	.	.	8r	.	8r	8ryy	.	.	.	.	.	.	.
4r	.	4ryy	.	8.g/	Żo-	4r	.	4r	.	4r	.	.	.	.	.	.	.	4r	.	4r	4ryy	.	8.g/L	.	.	.	8.gg|\L	.
.	.	.	.	16a-/	-ny	.	.	.	.	.	.	.	.	.	.	.	.	.	.	.	.	.	16a-/Jk	.	.	.	16aa-|\Jk	.
*	*	*	*	*	*	*	*	*	*	*	*	*	*	*	*	*	*	*	*	*v	*v	*	*	*	*	*	*	*
=36	=36	=36	=36	=36	=36	=36	=36	=36	=36	=36	=36	=36	=36	=36	=36	=36	=36	=36	=36	=36	=36	=36	=36	=36	=36	=36	=36
4.G\	.	4.G\yy	.	4b-/	czę-	8r	.	8r	.	8r	.	2.ryy	2.ryy	2.ryy	.	2.ryy	.	2.r	.	2.r	.	(4b-/	2.r	.	2.r	(4bb-\	.
.	.	.	.	.	.	8B-L 8G/	.	8e-/L	.	8b-/L	.	.	.	.	.	.	.	.	.	.	.	.	.	.	.	.	.
.	.	.	.	8e-/	-sto	8B-J 8G/	.	8e-/J	.	8b-/J	.	.	.	.	.	.	.	.	.	.	.	8e-/)	.	.	.	8ee-\)	.
8r	.	8ryy	.	8r	.	8r	.	8r	.	8r	.	.	.	.	.	.	.	.	.	.	.	8r	.	.	.	8r	.
4r	.	4ryy	.	8.ee-\	ro-	4r	.	4r	.	4r	.	.	.	.	.	.	.	.	.	.	.	8.ee-/L	.	.	.	8.eee-|\L	.
.	.	.	.	16dd\	-bią	.	.	.	.	.	.	.	.	.	.	.	.	.	.	.	.	16dd/Jk	.	.	.	16ddd|\Jk	.
=37	=37	=37	=37	=37	=37	=37	=37	=37	=37	=37	=37	=37	=37	=37	=37	=37	=37	=37	=37	=37	=37	=37	=37	=37	=37	=37	=37
*	*	*	*	*	*	*	*	*	*	*	*	*	*	*	*	*	*	*	*	*^	*	*	*	*	*	*	*
4.A-\	.	4.A-\yy	.	([8bn\L	a-	8r	.	8r	.	8r	.	2.ryy	2.ryy	2.ryy	.	2.ryy	.	4r	.	4r	4ryy	.	[<8bX/L	2.r	.	2.r	([8bbn\L	.
.	.	.	.	32b\LL]	.	8c/L	.	8e-/L	.	8f/L	.	.	.	.	.	.	.	.	.	.	.	.	32b/LL]	.	.	.	32bb\LL]	.
.	.	.	.	32cc\	.	.	.	.	.	.	.	.	.	.	.	.	.	.	.	.	.	.	(<32cc/	.	.	.	32ccc\	.
.	.	.	.	32dd\	.	.	.	.	.	.	.	.	.	.	.	.	.	.	.	.	.	.	32dd/	.	.	.	32ddd\	.
.	.	.	.	32cc\JJJ	.	.	.	.	.	.	.	.	.	.	.	.	.	.	.	.	.	.	32cc/JJJ	.	.	.	32ccc\JJJ	.
.	.	.	.	8f/)	-cta	8c/J	.	8e-/J	.	8f/J	.	.	.	.	.	.	.	4r	.	4r	4ryy	.	8f/)	.	.	.	8ff\)	.
8r	.	8ryy	.	8r	.	8r	.	8r	.	8r	.	.	.	.	.	.	.	.	.	.	.	.	8r	.	.	.	8r	.
!	!	!	!	!	!	!	!	!	!	!	!	!	!	!	!	!	!	!	!	!	!	!LO:DY:rj	!	!	!	!	!	!
4An^<\	.	4An^<\yy	.	8.cc\	I	4c^/	.	4e-^/	.	4g-X^/	.	.	.	.	.	.	.	4An\	.	4g-X/	4e-^\	sf	4r	.	.	.	4r	.
.	.	.	.	16c/	to	.	.	.	.	.	.	.	.	.	.	.	.	.	.	.	.	.	.	.	.	.	.	.
*	*	*	*	*	*	*	*	*	*	*	*	*	*	*	*	*	*	*	*	*	*	*	*v	*v	*	*	*	*
=38	=38	=38	=38	=38	=38	=38	=38	=38	=38	=38	=38	=38	=38	=38	=38	=38	=38	=38	=38	=38	=38	=38	=38	=38	=38	=38	=38
!	!	!	!	!	!	!	!	!	!	!	!	!	!	!	!	!	!	!	!	!	!	!LO:DY:rj	!	!	!	!	!
8B-\	.	8B-\yy	.	8B-/	praw-	8r	.	8r	.	8r	.	2.ryy	2.ryy	2.ryy	.	2.ryy	.	2B-\	.	2gn/	2e-\	p	2.r	.	2.r	2.r	.
8r	.	8ryy	.	8e-/	-nie	8B-/	.	8e-/	.	8gn/	.	.	.	.	.	.	.	.	.	.	.	.	.	.	.	.	.
8B-\	.	8B-\yy	.	4.g/	nad-	8r	.	8r	.	8r	.	.	.	.	.	.	.	.	.	.	.	.	.	.	.	.	.
8r	.	8ryy	.	.	.	8B-/	.	8e-/	.	8g/	.	.	.	.	.	.	.	.	.	.	.	.	.	.	.	.	.
8BB-/	.	8BB-/yy	.	.	.	8r	.	8r	.	8r	.	.	.	.	.	.	.	4d\	.	4f 4B-/	4ryy	.	.	.	.	.	.
8r	.	8ryy	.	8f/	-we-	8A-/	.	8d/	.	8f/	.	.	.	.	.	.	.	.	.	.	.	.	.	.	.	.	.
*	*	*	*	*	*	*	*	*	*	*	*	*	*	*	*	*	*	*	*	*v	*v	*	*	*	*	*	*
!!LO:PB:g=original
=39	=39	=39	=39	=39	=39	=39	=39	=39	=39	=39	=39	=39	=39	=39	=39	=39	=39	=39	=39	=39	=39	=39	=39	=39	=39	=39
(4BB-/	.	(yy4BB-/yy	.	4f/	-rę-	8r	.	8r	.	8r	.	2.ryy	2.r	2.r	.	2.r	.	(4d\	.	(>4f 4B-/	.	2.r	.	2.r	2.r	.
.	.	.	.	.	.	(8A-/L	.	(8d/L	.	(8f/L	.	.	.	.	.	.	.	.	.	.	.	.	.	.	.	.
8E-\)	.	8E-\)yy	.	8e-/	-ża	8G/J)	.	8e-/J)	.	8e-/J)	.	.	.	.	.	.	.	8e-\)	.	8e- 8G/)	.	.	.	.	.	.
8r	.	8ryy	.	8r	.	8r	.	8r	.	8r	.	.	.	.	.	.	.	8r	.	8r	.	.	.	.	.	.
4r	.	4ryy	.	4b-/	la	4r	.	4r	.	4r	.	.	.	.	.	.	.	4r	.	4r	.	.	.	.	.	.
=40	=40	=40	=40	=40	=40	=40	=40	=40	=40	=40	=40	=40	=40	=40	=40	=40	=40	=40	=40	=40	=40	=40	=40	=40	=40	=40
!	!LO:DY:rj	!	!LO:DY:rj	!	!	!	!	!	!	!	!	!	!	!	!	!	!	!	!	!	!	!	!	!	!	!
4BB-/	p	4BB-/yy	pyy	(16b-/LL	la	4r	.	4r	.	4r	p	2.ryy	2.ryy	2.ryy	.	2.ryy	.	2.r	.	2.r	.	2.r	.	2.r	2.r	.
.	.	.	.	16an/	.	.	.	.	.	.	.	.	.	.	.	.	.	.	.	.	.	.	.	.	.	.
.	.	.	.	16b-/	.	.	p	.	.	.	.	.	.	.	.	.	.	.	.	.	.	.	.	.	.	.
.	.	.	.	16dd/JJ)	.	.	.	.	.	.	.	.	.	.	.	.	.	.	.	.	.	.	.	.	.	.
4r	.	4ryy	.	8ff\	la	2B-/	.	(4B-/	.	(4d/	.	.	.	.	.	.	.	.	.	.	.	.	.	.	.	.
.	.	.	.	8r	.	.	.	.	.	.	.	.	.	.	.	.	.	.	.	.	.	.	.	.	.	.
4r	.	4ryy	.	4a-X/	la	.	.	4d/)	.	4a-/)	.	.	.	.	.	.	.	.	.	.	.	.	.	.	.	.
=41	=41	=41	=41	=41	=41	=41	=41	=41	=41	=41	=41	=41	=41	=41	=41	=41	=41	=41	=41	=41	=41	=41	=41	=41	=41	=41
4E-\	.	4E-\yy	.	8.g/	la	4r	.	4r	.	4r	.	2.ryy	2.ryy	2.ryy	.	2.ryy	.	2.r	.	4r	.	2.r	.	2.r	2.r	.
.	.	.	.	16cc\	la	.	.	.	.	.	.	.	.	.	.	.	.	.	.	.	.	.	.	.	.	.
4r	.	4ryy	.	8b-\	la	(4G/	.	(4B-/	.	(4e-/	.	.	.	.	.	.	.	.	.	8r	p	.	.	.	.	.
.	.	.	.	8r	.	.	.	.	.	.	.	.	.	.	.	.	.	.	.	(8b-L 8B-/	.	.	.	.	.	.
4r	.	4ryy	.	4b-\	la	4B-/)	.	4e-/)	.	4g/)	.	.	.	.	.	.	.	.	.	8g 8G/	.	.	.	.	.	.
.	.	.	.	.	.	.	.	.	.	.	.	.	.	.	.	.	.	.	.	8e-J 8E-/)	.	.	.	.	.	.
=42	=42	=42	=42	=42	=42	=42	=42	=42	=42	=42	=42	=42	=42	=42	=42	=42	=42	=42	=42	=42	=42	=42	=42	=42	=42	=42
4BB-/	.	4BB-/yy	.	(16b-\LL	la	4r	.	4r	.	4r	.	2.ryy	2.ryy	2.ryy	.	2.ryy	.	2.r	.	2.B- 2.BB-/	.	2.r	.	2.r	2.r	.
.	.	.	.	16an\	.	.	.	.	.	.	.	.	.	.	.	.	.	.	.	.	.	.	.	.	.	.
.	.	.	.	16b-\	.	.	.	.	.	.	.	.	.	.	.	.	.	.	.	.	.	.	.	.	.	.
.	.	.	.	16dd\JJ	.	.	.	.	.	.	.	.	.	.	.	.	.	.	.	.	.	.	.	.	.	.
4r	.	4ryy	.	8ff\)	la	2B-/	.	(4B-/	.	(4d/	.	.	.	.	.	.	.	.	.	.	.	.	.	.	.	.
.	.	.	.	8r	.	.	.	.	.	.	.	.	.	.	.	.	.	.	.	.	.	.	.	.	.	.
4r	.	4ryy	.	4a-X/	la	.	.	4d/)	.	4a-/)	.	.	.	.	.	.	.	.	.	.	.	.	.	.	.	.
!!LO:PB:g=original
=43	=43	=43	=43	=43	=43	=43	=43	=43	=43	=43	=43	=43	=43	=43	=43	=43	=43	=43	=43	=43	=43	=43	=43	=43	=43	=43
4E-\	.	4E-\yy	.	8.g/	la	4r	.	4r	.	4r	.	2.ryy	2.r	2.r	.	2.r	.	2.r	.	4r	.	2.ryy	.	2.ryy	2.ryy	.
.	.	.	.	16cc\	la	.	.	.	.	.	.	.	.	.	.	.	.	.	.	.	.	.	.	.	.	.
4r	.	4ryy	.	8b-\	la	(4G/	.	(4B-/	.	(4e-/	.	.	.	.	.	.	.	.	.	8r	.	.	.	.	.	.
!	!	!	!	!	!	!	!	!	!	!	!	!	!	!	!	!	!	!	!	!	!LO:DY:rj	!	!	!	!	!
.	.	.	.	8r	.	.	.	.	.	.	.	.	.	.	.	.	.	.	.	8e-L 8E-'/	p	.	.	.	.	.
4r	.	4ryy	.	4b-\	la	4B-/)	.	4e-/)	.	4g/)	.	.	.	.	.	.	.	.	.	8g 8G'/	.	.	.	.	.	.
.	.	.	.	.	.	.	.	.	.	.	.	.	.	.	.	.	.	.	.	8b-J 8B-'/	.	.	.	.	.	.
=44	=44	=44	=44	=44	=44	=44	=44	=44	=44	=44	=44	=44	=44	=44	=44	=44	=44	=44	=44	=44	=44	=44	=44	=44	=44	=44
8G\	.	8G\yy	.	(16ff\LL	la	8r	.	8r	.	8r	.	2.ryy	2.ryy	2.ryy	.	2.ryy	.	2.r	.	2.r	.	2.ryy	.	2.ryy	2.ryy	.
.	.	.	.	16ee-\	.	.	.	.	.	.	.	.	.	.	.	.	.	.	.	.	.	.	.	.	.	.
8r	.	8ryy	.	16dd\	.	8B-/	.	8e-/	.	8b-/	.	.	.	.	.	.	.	.	.	.	.	.	.	.	.	.
.	.	.	.	16ee-\JJ	.	.	.	.	.	.	.	.	.	.	.	.	.	.	.	.	.	.	.	.	.	.
8G\	.	8G\yy	.	4b-\)	la	8r	.	8r	.	8r	.	.	.	.	.	.	.	.	.	.	.	.	.	.	.	.
8r	.	8ryy	.	.	.	8B-/	.	8e-/	.	8b-/	.	.	.	.	.	.	.	.	.	.	.	.	.	.	.	.
8E-\	.	8E-\yy	.	4g/	la	8r	.	8r	.	8r	.	.	.	.	.	.	.	.	.	.	.	.	.	.	.	.
8r	.	8ryy	.	.	.	8B-/	.	8e-/	.	8g/	.	.	.	.	.	.	.	.	.	.	.	.	.	.	.	.
=45	=45	=45	=45	=45	=45	=45	=45	=45	=45	=45	=45	=45	=45	=45	=45	=45	=45	=45	=45	=45	=45	=45	=45	=45	=45	=45
8A-\	.	8A-\yy	.	8.f/	la	8r	.	8r	.	8r	.	2.ryy	2.ryy	2.ryy	.	2.ryy	.	2.r	.	2.r	.	2.ryy	.	2.ryy	2.ryy	.
8r	.	8ryy	.	.	.	8c/	.	8e-/	.	8f/	.	.	.	.	.	.	.	.	.	.	.	.	.	.	.	.
.	.	.	.	16bn/	la	.	.	.	.	.	.	.	.	.	.	.	.	.	.	.	.	.	.	.	.	.
*rep	*	*repyy	*	*2\right	*	*rep	*	*rep	*	*rep	*	*	*	*	*	*	*	*	*	*	*	*	*	*	*	*
8A-\	.	8A-\yy	.	2cc\	la	8r	.	8r	.	8r	.	.	.	.	.	.	.	.	.	.	.	.	.	.	.	.
8r	.	8ryy	.	.	.	8c/	.	8e-/	.	8f/	.	.	.	.	.	.	.	.	.	.	.	.	.	.	.	.
*Xrep	*	*Xrep	*	*	*	*Xrep	*	*Xrep	*	*Xrep	*	*	*	*	*	*	*	*	*	*	*	*	*	*	*	*
*rep	*	*repyy	*	*	*	*rep	*	*rep	*	*rep	*	*	*	*	*	*	*	*	*	*	*	*	*	*	*	*
8A-\	.	8A-\yy	.	.	.	8r	.	8r	.	8r	.	.	.	.	.	.	.	.	.	.	.	.	.	.	.	.
8r	.	8ryy	.	.	.	8c/	.	8e-/	.	8f/	.	.	.	.	.	.	.	.	.	.	.	.	.	.	.	.
*Xrep	*	*Xrep	*	*	*	*Xrep	*	*Xrep	*	*Xrep	*	*	*	*	*	*	*	*	*	*	*	*	*	*	*	*
=46	=46	=46	=46	=46	=46	=46	=46	=46	=46	=46	=46	=46	=46	=46	=46	=46	=46	=46	=46	=46	=46	=46	=46	=46	=46	=46
!	!	!	!	!LO:TUP:a:problem:klamra łukowa	!	!	!	!	!	!	!	!	!	!	!	!	!	!	!	!	!	!	!	!	!	!
8B-\	.	8B-\yy	.	12b-X\L	la	8r	.	8r	.	8r	.	2.ryy	2.ryy	2.ryy	.	2.ryy	.	2.r	.	4r	.	2.ryy	.	2.ryy	2.ryy	.
.	.	.	.	12gg\	.	.	.	.	.	.	.	.	.	.	.	.	.	.	.	.	.	.	.	.	.	.
8r	.	8ryy	.	.	.	8B-/	.	8e-/	.	8g/	.	.	.	.	.	.	.	.	.	.	.	.	.	.	.	.
.	.	.	.	12ff\J	.	.	.	.	.	.	.	.	.	.	.	.	.	.	.	.	.	.	.	.	.	.
*	*	*	*	*	*	*rep	*	*rep	*	*rep	*	*	*	*	*	*	*	*	*	*	*	*	*	*	*	*
!	!	!	!	!	!	!	!	!	!	!	!	!	!	!	!	!	!	!	!	!	!LO:DY:rj	!	!	!	!	!
8B-\	.	8B-\yy	.	4ee-\	la	8r	.	8r	.	8r	.	.	.	.	.	.	.	.	.	4g 4e-\	p	.	.	.	.	.
8r	.	8ryy	.	.	.	8B-/	.	8e-/	.	8g/	.	.	.	.	.	.	.	.	.	.	.	.	.	.	.	.
*	*	*	*	*	*	*Xrep	*	*Xrep	*	*Xrep	*	*	*	*	*	*	*	*	*	*	*	*	*	*	*	*
*	*	*	*	*	*	*rep	*	*rep	*	*rep	*	*	*	*	*	*	*	*	*	*	*	*	*	*	*	*
8BB-/	.	8BB-/yy	.	4g/	la	8r	.	8r	.	8r	.	.	.	.	.	.	.	.	.	4e- 4G/	.	.	.	.	.	.
8r	.	8ryy	.	.	.	8B-/	.	8e-/	.	8g/	.	.	.	.	.	.	.	.	.	.	.	.	.	.	.	.
*	*	*	*	*	*	*Xrep	*	*Xrep	*	*Xrep	*	*	*	*	*	*	*	*	*	*	*	*	*	*	*	*
=47	=47	=47	=47	=47	=47	=47	=47	=47	=47	=47	=47	=47	=47	=47	=47	=47	=47	=47	=47	=47	=47	=47	=47	=47	=47	=47
4BB-/	.	4BB-/yy	.	(16cc/LL	la	8r	.	8r	.	8r	.	2.ryy	2.ryy	2.ryy	.	2.ryy	.	(4d\	.	4f 4B-/	.	4r	.	4r	4r	.
.	.	.	.	16b-/	.	.	.	.	.	.	.	.	.	.	.	.	.	.	.	.	.	.	.	.	.	.
.	.	.	.	16a-/	.	8B-/L	.	8fL 8d/	.	8a-/L	.	.	.	.	.	.	.	.	.	.	.	.	.	.	.	.
.	.	.	.	16f/JJ	.	.	.	.	.	.	.	.	.	.	.	.	.	.	.	.	.	.	.	.	.	.
8E-\	.	8E-\yy	.	8e-/)	la	8B-/J	.	8e-/J	.	8g/J	.	.	.	.	.	.	.	8e-\)	.	8e- 8G/	.	4r	.	4r	4r	.
8r	.	8ryy	.	8r	.	8r	.	8r	.	8r	.	.	.	.	.	.	.	8r	.	8r	.	.	.	.	.	f
!	!	!	!	!	!	!	!	!	!	!	!LO:DY:rj	!	!	!	!	!	!	!	!	!	!	!	!	!	!	!
4r	.	4ryy	.	4r	.	4r	.	8.g/L	.	8.gg\L	f	.	.	.	.	.	.	4r	.	4r	.	8.g/L	.	8.gg\L	8.gg\L	.
.	.	.	.	.	.	.	.	16a-/Jk	.	16aa-\Jk	.	.	.	.	.	.	.	.	.	.	.	16a-/Jk	.	16aa-\Jk	16aa-\Jk	.
!!LO:PB:g=original
=48	=48	=48	=48	=48	=48	=48	=48	=48	=48	=48	=48	=48	=48	=48	=48	=48	=48	=48	=48	=48	=48	=48	=48	=48	=48	=48
*	*	*	*	*	*	*	*	*	*	*	*	*	*	*	*	*	*	*	*	*	*	*^	*	*	*	*
!	!	!	!	!	!	!	!	!	!	!	!	!	!LO:SIC:v:s=4E-	!	!	!	!LO:DY:rj	!	!	!	!LO:DY:a:rj	!	!	!	!	!LO:TX:b:t=P:problem:diminuendolike accent	!
4.G\	f	4.G\yy	fyy	2.r	.	8r	.	(4b-/	.	(4.bb-^<\	.	2.ryy	4Ett\	4.GG/	.	(4b-/	f	4.G\	.	4.e- 4.B-/	f	(4b-/	4.e-\	.	(4bb-\	(4bb-^<\	.
.	.	.	.	.	.	8e-L 8B-\	.	.	.	.	.	.	.	.	.	.	.	.	.	.	.	.	.	.	.	.	.
!	!	!	!	!	!	!	!	!	!	!	!	!	!LO:SIC:v:s=8E-	!	!	!	!	!	!	!	!	!	!	!	!	!	!
.	.	.	.	.	.	8e-J 8B-\	.	8e-/)	.	.	.	.	8E\	.	.	8e-/)	.	.	.	.	.	8e-/)	.	.	8ee-\)	8ee-\)	.
8r	.	8ryy	.	.	.	8r	.	8r	.	8ee-\)	.	.	8r	8r	.	8r	.	8r	.	8r	.	8r	8ryy	.	8r	8r	.
4r	.	4ryy	.	.	.	4r	.	8.ee-\L	.	8.eee-\L	.	.	4r	4r	.	8.ee-\L	.	4r	.	4r	.	8.ee-/L	4r	.	8.ee-\L	8.eee-\L	.
.	.	.	.	.	.	.	.	16dd\Jk	.	16ddd\Jk	.	.	.	.	.	16dd\Jk	.	.	.	.	.	16dd/Jk	.	.	16dd\Jk	16ddd\Jk	.
=49	=49	=49	=49	=49	=49	=49	=49	=49	=49	=49	=49	=49	=49	=49	=49	=49	=49	=49	=49	=49	=49	=49	=49	=49	=49	=49	=49
*	*	*	*	*	*	*	*	*	*	*	*	*	*	*	*	*	*	*	*	*^	*	*	*	*	*	*	*
!	!	!	!	!	!	!	!	!	!	!	!	!	!LO:SIC:v:s=4E-	!	!	!	!	!	!	!	!	!	!	!LO:TX:b:t=P:problem:diminuendolike accent	!	!	!LO:TX:b:t=P:problem:diminuendolike accent	!
4.A-^<\	.	4.A-^<\yy	.	2.r	.	8r	.	(4bn\	.	(4bbn^<\	.	2.ryy	4Ett\	4.AA-/	.	(4bn^<\	.	4.A-\	.	4.f/	4.e-\	.	4bX/	4.f^\	.	(4bn\	(4bbn^<\	.
.	.	.	.	.	.	8fL 8c\	.	.	.	.	.	.	.	.	.	.	.	.	.	.	.	.	.	.	.	.	.	.
!	!	!	!	!	!	!	!	!	!	!	!	!	!LO:SIC:v:s=8E-	!	!	!	!	!	!	!	!	!	!	!	!	!	!	!
.	.	.	.	.	.	8fJ 8c\	.	8cc\)	.	8ccc\)	.	.	8E\	.	.	8cc\)	.	.	.	.	.	.	8cc/	.	.	8cc\)	8ccc\)	.
8r	.	8ryy	.	.	.	8r	.	8r	.	8r	.	.	8r	8r	.	8r	.	8r	.	8r	8r	.	8r	8ryy	.	8r	8r	.
4An^<\	.	4An^<\yy	.	.	.	4e- 4c\	.	4ee- 4g-X/	.	(4ccc\	.	.	4r	4AAn/	.	(4cc\	.	4An\	.	4g-X/	4e-\	.	4c/	(4A-\	.	4gg-X\	(4ccc\	.
*	*	*	*	*	*	*	*	*	*	*	*	*	*	*	*	*	*	*	*	*v	*v	*	*	*	*	*	*	*
=50	=50	=50	=50	=50	=50	=50	=50	=50	=50	=50	=50	=50	=50	=50	=50	=50	=50	=50	=50	=50	=50	=50	=50	=50	=50	=50	=50
!	!	!	!	!	!	!	!	!	!	!	!	!	!LO:SIC:v:s=8E-	!	!	!	!	!	!	!	!	!	!	!	!	!	!
8B-\	.	8B-\yy	.	2.r	.	8e- 8B-\	.	8ee- 8gn/	.	8bb-\)	.	2.ryy	8E\	8BB-/	.	8b-\)	.	8B-\	.	8gn 8e-\	.	16B-/LL	8B-\)	.	8ggn\	8bb-X\)	.
.	.	.	.	.	.	.	.	.	.	.	.	.	.	.	.	.	.	.	.	.	.	(32c/L	.	.	.	.	.
.	.	.	.	.	.	.	.	.	.	.	.	.	.	.	.	.	.	.	.	.	.	32d/	.	.	.	.	.
8r	.	8ryy	.	.	.	8r	.	8r	.	8r	.	.	8r	8r	.	8r	.	8r	.	8r	.	32e-/	8r	.	8r	8r	.
.	.	.	.	.	.	.	.	.	.	.	.	.	.	.	.	.	.	.	.	.	.	32f/	.	.	.	.	.
.	.	.	.	.	.	.	.	.	.	.	.	.	.	.	.	.	.	.	.	.	.	32g/	.	.	.	.	.
.	.	.	.	.	.	.	.	.	.	.	.	.	.	.	.	.	.	.	.	.	.	32a-/JJJ	.	.	.	.	.
4r	.	4ryy	.	.	.	4r	.	4r	.	4r	.	.	4r	4r	.	4r	.	4r	.	4r	.	16b-/LL	4r	.	4r	4r	.
.	.	.	.	.	.	.	.	.	.	.	.	.	.	.	.	.	.	.	.	.	.	32cc/L)	.	.	.	.	.
.	.	.	.	.	.	.	.	.	.	.	.	.	.	.	.	.	.	.	.	.	.	(32dd/	.	.	.	.	.
.	.	.	.	.	.	.	.	.	.	.	.	.	.	.	.	.	.	.	.	.	.	32ee-/	.	.	.	.	.
.	.	.	.	.	.	.	.	.	.	.	.	.	.	.	.	.	.	.	.	.	.	32ff/	.	.	.	.	.
.	.	.	.	.	.	.	.	.	.	.	.	.	.	.	.	.	.	.	.	.	.	32gg/	.	.	.	.	.
.	.	.	.	.	.	.	.	.	.	.	.	.	.	.	.	.	.	.	.	.	.	32aa-/JJJ	.	.	.	.	.
8r	.	8ryy	.	.	.	8r	.	8r	.	8r	.	.	8r	8r	.	8r	.	8r	.	8r	.	8bb-/L	8r	.	8r	8r	.
!	!	!	!	!	!	!	!	!	!	!	!	!	!LO:SIC:v:s=8BB-	!	!	!	!	!	!	!	!	!	!	!	!	!	!
8BB-/	.	8BB-/yy	.	.	.	8f 8B-\	.	8a- 8B-/	.	8dd 8f/	.	.	8BB/	8BB-/	.	8d/	.	8BB-/	.	8f 8B-/	.	8dd/J)	8a-\	.	8ff\	8ddd\	.
*	*	*	*	*	*	*	*	*	*	*	*	*	*	*	*	*	*	*	*	*	*	*v	*v	*	*	*	*
=51	=51	=51	=51	=51	=51	=51	=51	=51	=51	=51	=51	=51	=51	=51	=51	=51	=51	=51	=51	=51	=51	=51	=51	=51	=51	=51
!	!	!	!	!	!	!	!	!	!	!	!	!	!LO:SIC:v:s=8E-	!	!	!	!	!	!	!	!	!	!	!	!	!
8E-\	.	8E-\yy	.	2.r	.	8g 8B-\	.	8g 8B-/	.	8ee- 8g\	.	2.ryy	8E\	8E-\	.	8e-/	.	8E-\	.	8e- 8G/	.	8ee- 8g\	.	8gg\	8eee-\	.
8r	.	8ryy	.	.	.	8r	.	8r	.	8r	.	.	8r	8r	.	8r	.	8r	.	8r	.	8r	.	8r	8r	.
!	!	!	!	!	!	!LO:SIC:v:n=3:s=4E-	!	!	!	!	!	!	!LO:SIC:v:s=4E-	!	!	!	!	!	!	!	!	!	!	!	!	!
4E-^<\	.	4E-^<\yy	.	.	.	4g 4B- 4D\	.	4g 4B-^/	.	4ee- 4g^<\	.	.	4E\	4E-\	.	4e-/	.	4EE-/	.	4e- 4G/	.	4gg 4b-\	.	4gg\	4eee-^<\	.
4r	.	4ryy	.	.	.	4r	.	4r	.	4r	.	.	4r	4r	.	4r	.	4r	.	4r	.	4r	.	4r	4r	.
==	==	==	==	==	==	==	==	==	==	==	==	==	==	==	==	==	==	==	==	==	==	==	==	==	==	==
*-	*-	*-	*-	*-	*-	*-	*-	*-	*-	*-	*-	*-	*-	*-	*-	*-	*-	*-	*-	*-	*-	*-	*-	*-	*-	*-
!!!system-decoration: [({s1,s2}s3,s4,s5,s6,s7,s8,s9{g1}s12,s13{s14,s15})]
!!!RDF**kern: > = above
!!!RDF**kern: < = below
!!!RDF**kern: | = vertical stroke
!!!ENC: Marta Lawrence
!!!END: 2021-05-10
!!!ENC: Krzysztof Stępień
!!!END: 2021-04-27
